!!!!SEGMENT: pl-cz--iii-684--001_volckmer-augustin--salve-regina-salve-regina.krn
!!!cenid: 17xx:1217
!!!COM: Volckmer, Augustin
!!!COM-rismid: pe30020656
!!!CDT: 1755-~1820
!!!CNT:
!!!OPR: Salve Regina
!!!OTL: Salve Regina
!!!OMV: 001
!!!PDT:
!!!AGN: Sacred
!!!SMS-siglum: PL-CZ
!!!SMS-shelfmark: III-684
!!!SMS-shelfwork: 001-001 M
!!!SMS-variant:
!!!SMS-altvar:
!!!NIFC-rismid: 300001402
!!!URL-scan: http://repozytorium.nifc.pl/skany/pl-cz-nut--iii-684
!!!ONB-nifc: UWAGA: części Salve Regina: Salve Regina, Et Jesum benedictum, O clemens o pia
!!!AIN: 1 alto 1 bass 1 clrno 1 clro 2 oboe 1 organ 1 soprn 1 tenor 1 timpa 1 viola 2 violn
!!!key: D
**kern	**kern	**kern	**kern	**kern	**text	**kern	**text	**kern	**text	**kern	**text	**kern	**kern	**kern	**kern	**kern
*	*group4	*group4	*group4	*group3	*	*group3	*	*group3	*	*group3	*	*	*group2	*group2	*group1	*group1
*part13	*part12	*part11	*part10	*part9	*part9	*part8	*part8	*part7	*part7	*part6	*part6	*part5	*part4	*part3	*part2	*part1
*staff13	*staff12	*staff11	*staff10	*staff9	*staff9	*staff8	*staff8	*staff7	*staff7	*staff6	*staff6	*staff5	*staff4	*staff3	*staff2	*staff1
*I"Organo.	*I"Viola Obligata.	*I"Violino Secondo.	*I"Violino Primo	*I"Baſso.	*	*I"Tenore.	*	*I"Alto.	*	*I"Canto.	*	*I"Tympanis	*I"Clarino Secondo	*I"Clarino Primo	*I"Oboe Secondo	*I"Oboe Primo
*I'org	*I'vla	*I'vl 2	*I'vl 1	*I'B	*	*I'T	*	*I'A	*	*I'S	*	*I'timp	*I'clno 2	*I'clno 1	*I'ob 2	*I'ob 1
*Iorgan	*Iviola	*Ivioln	*Ivioln	*Ibass	*	*Itenor	*	*Ialto	*	*Isoprn	*	*Itimpa	*Iclro	*Iclrno	*Ioboe	*Ioboe
*ICklav	*ICstr	*ICstr	*ICstr	*ICvox	*	*ICvox	*	*ICvox	*	*ICvox	*	*ICidio	*ICbras	*ICbras	*ICww	*ICww
*clefF4	*clefC3	*clefG2	*clefG2	*clefF4	*	*clefC4	*	*clefC3	*	*clefC1	*	*clefF4	*clefG2	*clefG2	*clefG2	*clefG2
*	*	*	*	*	*	*	*	*	*	*	*	*	*ITrd-1c-2	*ITrd-1c-2	*	*
*k[f#c#]	*k[f#c#]	*k[f#c#]	*k[f#c#]	*k[f#c#]	*	*k[c#f#]	*	*k[f#c#]	*	*k[c#f#]	*	*k[f#c#]	*k[f#c#]	*k[f#c#]	*k[f#c#]	*k[f#c#]
*D:	*D:	*D:	*D:	*D:	*	*D:	*	*D:	*	*D:	*	*D:	*D:	*D:	*D:	*D:
*M3/4	*M3/4	*M3/4	*M3/4	*M3/4	*	*M3/4	*	*M3/4	*	*M3/4	*	*M3/4	*M3/4	*M3/4	*M3/4	*M3/4
=1	=1	=1	=1	=1	=1	=1	=1	=1	=1	=1	=1	=1	=1	=1	=1	=1
*	*	*	*	*2\right	*	*2\right	*	*2\right	*	*2\right	*	*	*	*	*	*
!	!	!	!	!	!	!	!	!	!	!LO:TX:t=P:problem:kolejność znaków cc# f#	!	!	!	!	!	!
!LO:TX:t=P:problem:brak partii w żródle - zgodnie z RISM "other parts missing"	!LO:TX:t=P:problem:brak partii w żródle - zgodnie z RISM "other parts missing"	!LO:TX:t=P:problem:brak partii w żródle - zgodnie z RISM "other parts missing"	!LO:TX:t=P:problem:brak partii w żródle - zgodnie z RISM "other parts missing"	!LO:TX:a:i:t=Allegro.	!	!LO:TX:a:i:t=Allegro.	!	!LO:TX:a:i:t=Allegro.	!	!LO:TX:a:i:t=Allegro&colon;	!	!LO:TX:t=P:problem:brak partii w żródle - zgodnie z RISM "other parts missing"	!LO:TX:t=P:problem:brak partii w żródle - zgodnie z RISM "other parts missing"	!LO:TX:t=P:problem:brak partii w żródle - zgodnie z RISM "other parts missing"	!LO:TX:t=P:problem:brak partii w żródle - zgodnie z RISM "other parts missing"	!LO:TX:t=P:problem:brak partii w żródle - zgodnie z RISM "other parts missing"
2.ryy	2.ryy	2.ryy	2.ryy	2D\	Sal-	2A\	Sal-	(2f#\	Sal-	[2dd\	Sal-	2.ryy	2.ryy	2.ryy	2.ryy	2.ryy
.	.	.	.	8F#\L	-ve	4f#\	.	4a\)	.	8.dd\L]	.	.	.	.	.	.
.	.	.	.	8D\J	.	.	.	.	.	.	.	.	.	.	.	.
.	.	.	.	.	.	.	.	.	.	16cc#\Jk	-ve	.	.	.	.	.
=2	=2	=2	=2	=2	=2	=2	=2	=2	=2	=2	=2	=2	=2	=2	=2	=2
*	*	*	*	*	*ij	*	*	*	*	*	*	*	*	*	*	*
2.ryy	2.ryy	2.ryy	2.ryy	4G\	Sal-	4d\	.	4g\	.	8cc#\L	Sal-	2.ryy	2.ryy	2.ryy	2.ryy	2.ryy
.	.	.	.	.	.	.	.	.	.	8b\J	.	.	.	.	.	.
.	.	.	.	4G\	-ve	4d\	-ve.	4g\	-ve	4b\	-ve	.	.	.	.	.
.	.	.	.	4r	.	4r	.	4r	.	4r	.	.	.	.	.	.
=3	=3	=3	=3	=3	=3	=3	=3	=3	=3	=3	=3	=3	=3	=3	=3	=3
2.ryy	2.ryy	2.ryy	2.ryy	4G\	Sal-	2.A\	Re-	(2g\	Re-	(2b\	Re-	2.ryy	2.ryy	2.ryy	2.ryy	2.ryy
.	.	.	.	4E\	-ve	.	.	.	.	.	.	.	.	.	.	.
*	*	*	*	*	*Xij	*	*	*	*	*	*	*	*	*	*	*
.	.	.	.	4A\	Re-	.	.	4e\)	.	4cc#X\)	.	.	.	.	.	.
=4	=4	=4	=4	=4	=4	=4	=4	=4	=4	=4	=4	=4	=4	=4	=4	=4
2.ryy	2.ryy	2.ryy	2.ryy	4F#\	-gi-	4A\	-gi-	4f#\	-gi-	16dd\LL	-gi-	2.ryy	2.ryy	2.ryy	2.ryy	2.ryy
.	.	.	.	.	.	.	.	.	.	16cc#\	.	.	.	.	.	.
.	.	.	.	.	.	.	.	.	.	16dd\	.	.	.	.	.	.
.	.	.	.	.	.	.	.	.	.	16ee\JJ	.	.	.	.	.	.
.	.	.	.	4D\	-na	4A\	-na	4f#\	-na	4dd\	-na.	.	.	.	.	.
.	.	.	.	4r	.	4r	.	4r	.	4r	.	.	.	.	.	.
=5	=5	=5	=5	=5	=5	=5	=5	=5	=5	=5	=5	=5	=5	=5	=5	=5
2.ryy	2.ryy	2.ryy	2.ryy	2D\	Ma-	2A\	Ma-	(2f#\	Ma-	[2dd\	Ma-	2.ryy	2.ryy	2.ryy	2.ryy	2.ryy
.	.	.	.	8G\L	.	4f#\	.	4a\)	.	8dd\L]	.	.	.	.	.	.
.	.	.	.	8D\J	.	.	.	.	.	8ccn\J	.	.	.	.	.	.
=6	=6	=6	=6	=6	=6	=6	=6	=6	=6	=6	=6	=6	=6	=6	=6	=6
!	!	!	!	!	!	!	!	!	!	!LO:SIC:v:s=8ccn\L	!	!	!	!	!	!
2.ryy	2.ryy	2.ryy	2.ryy	4G\	.	4d\	.	4g\	.	8cc#\L	.	2.ryy	2.ryy	2.ryy	2.ryy	2.ryy
.	.	.	.	.	.	.	.	.	.	8b\J	.	.	.	.	.	.
.	.	.	.	4G\	-ter	4d\	-ter	4g\	-ter	4b\	-ter	.	.	.	.	.
.	.	.	.	4r	.	4r	.	4r	.	4r	.	.	.	.	.	.
!	!	!	!	!	!	!	!	!	!	!LO:LB:g=original	!	!	!	!	!	!
=7	=7	=7	=7	=7	=7	=7	=7	=7	=7	=7	=7	=7	=7	=7	=7	=7
2.ryy	2.ryy	2.ryy	2.ryy	4G\	mi-	4A\	Mi-	4g\	mi-	4ee\	mi-	2.ryy	2.ryy	2.ryy	2.ryy	2.ryy
.	.	.	.	4E\	.	2A\	-se-	2g\	-se-	2ee\	-se-	.	.	.	.	.
.	.	.	.	4A\	-se-	.	.	.	.	.	.	.	.	.	.	.
!	!	!	!	!LO:LB:g=original	!	!	!	!	!	!	!	!	!	!	!	!
=8	=8	=8	=8	=8	=8	=8	=8	=8	=8	=8	=8	=8	=8	=8	=8	=8
2.ryy	2.ryy	2.ryy	2.ryy	4D\	-ri-	4A\	-ri-	4f#\	-ri-	4dd\	-ri-	2.ryy	2.ryy	2.ryy	2.ryy	2.ryy
.	.	.	.	4r	.	4r	.	4r	.	4r	.	.	.	.	.	.
.	.	.	.	4d\	-cor-	4d\	-cor-	4a\	-cor-	4ff#\	-Cor-	.	.	.	.	.
!	!	!	!	!	!	!LO:LB:g=original	!	!LO:LB:g=original	!	!	!	!	!	!	!	!
=9	=9	=9	=9	=9	=9	=9	=9	=9	=9	=9	=9	=9	=9	=9	=9	=9
2.ryy	2.ryy	2.ryy	2.ryy	4.c#\	.	4.c#\	.	4.a\	.	4.ee\	.	2.ryy	2.ryy	2.ryy	2.ryy	2.ryy
.	.	.	.	8A\	-di-	8e\	-di-	8a\	-di-	8gg\	-di-	.	.	.	.	.
!	!	!	!	!LO:SIC:v:l:s=-ae	!	!LO:SIC:v:l:s=-ae	!	!LO:SIC:v:l:s=-ae	!	!LO:SIC:v:l:s=-ae	!	!	!	!	!	!
.	.	.	.	4d\	-e	4d\	-e	4a\	-e	4ff#\	-e	.	.	.	.	.
=10	=10	=10	=10	=10	=10	=10	=10	=10	=10	=10	=10	=10	=10	=10	=10	=10
2.ryy	2.ryy	2.ryy	2.ryy	4r	.	4r	.	4r	.	4r	.	2.ryy	2.ryy	2.ryy	2.ryy	2.ryy
.	.	.	.	4F#\	Sal-	4d\	Sal-	4a\	Sal-	4ff#\	Sal-	.	.	.	.	.
.	.	.	.	4D\	-ve	4d\	-ve	4a\	-ve	4ff#\	-ve	.	.	.	.	.
=11	=11	=11	=11	=11	=11	=11	=11	=11	=11	=11	=11	=11	=11	=11	=11	=11
2.ryy	2.ryy	2.ryy	2.ryy	4.A\	Re-	4c#\	re-	2a\	re-	4ee\	Re-	2.ryy	2.ryy	2.ryy	2.ryy	2.ryy
.	.	.	.	.	.	4e\	.	.	.	4gg\	-gi-	.	.	.	.	.
.	.	.	.	8d\	.	.	.	.	.	.	.	.	.	.	.	.
.	.	.	.	4d\	-gi-	4d\	-gi-	4a\	-gi-	4ff#\	-na	.	.	.	.	.
=12	=12	=12	=12	=12	=12	=12	=12	=12	=12	=12	=12	=12	=12	=12	=12	=12
2.ryy	2.ryy	2.ryy	2.ryy	2G\	-na	2e\	-na	2b\	-na	2ee\	Ma-	2.ryy	2.ryy	2.ryy	2.ryy	2.ryy
.	.	.	.	4G\	ma-	4e\	Ma-	4b\	Ma-	4ee\	.	.	.	.	.	.
=13	=13	=13	=13	=13	=13	=13	=13	=13	=13	=13	=13	=13	=13	=13	=13	=13
2.ryy	2.ryy	2.ryy	2.ryy	2G#X\	-ter	2e\	-ter	2b\	-ter	2dd\	-ter	2.ryy	2.ryy	2.ryy	2.ryy	2.ryy
.	.	.	.	4G#\	mi-	4e\	mi-	4b\	Mi-	4dd\	mi-	.	.	.	.	.
=14	=14	=14	=14	=14	=14	=14	=14	=14	=14	=14	=14	=14	=14	=14	=14	=14
2.ryy	2.ryy	2.ryy	2.ryy	2A\	-se-	2e\	-se-	2a\	-se-	2cc#\	-se-	2.ryy	2.ryy	2.ryy	2.ryy	2.ryy
.	.	.	.	4Gn\	-ri-	4e\	-ri-	4a\	-ri-	4cc#\	-ri	.	.	.	.	.
!	!	!	!	!	!	!	!	!	!	!LO:LB:g=original	!	!	!	!	!	!
=15	=15	=15	=15	=15	=15	=15	=15	=15	=15	=15	=15	=15	=15	=15	=15	=15
2.ryy	2.ryy	2.ryy	2.ryy	2F#\	-cor-	2f#\	-cor-	2a\	-Cor-	2dd\	Ma-	2.ryy	2.ryy	2.ryy	2.ryy	2.ryy
.	.	.	.	4D\	-di-	4d\	-di-	4a\	-di-	4dd\	-ter	.	.	.	.	.
!	!	!	!	!LO:LB:g=original	!	!	!	!	!	!	!	!	!	!	!	!
=16	=16	=16	=16	=16	=16	=16	=16	=16	=16	=16	=16	=16	=16	=16	=16	=16
!	!	!	!	!LO:SIC:v:l:s=-ae	!	!	!	!LO:SIC:v:l:s=-ae	!	!	!	!	!	!	!	!
2.ryy	2.ryy	2.ryy	2.ryy	4C#/	-e	4c#\	-ae	2a\	-e	(4ee\	Mi-	2.ryy	2.ryy	2.ryy	2.ryy	2.ryy
.	.	.	.	4AA/	.	4e\	.	.	.	4gg\)	.	.	.	.	.	.
.	.	.	.	4D/	Vi-	4d\	Vi-	4a\	Vi-	4ff#\	-se-	.	.	.	.	.
!	!	!	!	!	!	!LO:LB:g=original	!	!	!	!	!	!	!	!	!	!
=17	=17	=17	=17	=17	=17	=17	=17	=17	=17	=17	=17	=17	=17	=17	=17	=17
2.ryy	2.ryy	2.ryy	2.ryy	4AA/	-ta	2e\	-ta	2a\	-ta	2cc#\	-ri-	2.ryy	2.ryy	2.ryy	2.ryy	2.ryy
.	.	.	.	4A\	.	.	.	.	.	.	.	.	.	.	.	.
.	.	.	.	4G\	dul-	4e\	dul-	4a\	dul-	4cc#\	-cor-	.	.	.	.	.
=18	=18	=18	=18	=18	=18	=18	=18	=18	=18	=18	=18	=18	=18	=18	=18	=18
2.ryy	2.ryy	2.ryy	2.ryy	2F#\	-ce-	2d\	-ce-	2a\	-ce-	2dd\	-di-	2.ryy	2.ryy	2.ryy	2.ryy	2.ryy
!	!	!	!	!	!	!	!	!	!	!LO:SIC:v:l:s=-ae	!	!	!	!	!	!
.	.	.	.	4D\	-do	4d\	-do	4a\	-do	4dd\	-e	.	.	.	.	.
!	!	!	!	!	!	!	!	!LO:LB:g=original	!	!	!	!	!	!	!	!
=19	=19	=19	=19	=19	=19	=19	=19	=19	=19	=19	=19	=19	=19	=19	=19	=19
2.ryy	2.ryy	2.ryy	2.ryy	4r	.	4r	.	4r	.	4r	.	2.ryy	2.ryy	2.ryy	2.ryy	2.ryy
.	.	.	.	4C#/	et	4e\	et	4a\	et	4gg\	Sal-	.	.	.	.	.
.	.	.	.	4D/	spes	4d\	spes	4a\	spes	4ff#\	-ve	.	.	.	.	.
=20	=20	=20	=20	=20	=20	=20	=20	=20	=20	=20	=20	=20	=20	=20	=20	=20
*	*	*	*	*	*	*	*	*	*	*	*ij	*	*	*	*	*
2.ryy	2.ryy	2.ryy	2.ryy	4A\	no-	4d\	no-	4a\	no-	4ff#\	Sal-	2.ryy	2.ryy	2.ryy	2.ryy	2.ryy
.	.	.	.	4AA/	-stra	4c#\	-stra	4a\	-stra	4ee\	-ve	.	.	.	.	.
*	*	*	*	*	*	*	*	*	*	*	*Xij	*	*	*	*	*
.	.	.	.	4r	.	4r	.	4r	.	4r	.	.	.	.	.	.
=21	=21	=21	=21	=21	=21	=21	=21	=21	=21	=21	=21	=21	=21	=21	=21	=21
*	*	*	*	*	*	*	*ij	*	*	*	*	*	*	*	*	*
2.ryy	2.ryy	2.ryy	2.ryy	2A\	et	2c#\	et	2a\	et	2ee\	Sal-	2.ryy	2.ryy	2.ryy	2.ryy	2.ryy
.	.	.	.	4A\	spes	4c#\	spes	4a\	spes	4ee\	.	.	.	.	.	.
=22	=22	=22	=22	=22	=22	=22	=22	=22	=22	=22	=22	=22	=22	=22	=22	=22
2.ryy	2.ryy	2.ryy	2.ryy	2G#X\	no-	2d\	no-	2b\	no-	2ee\	-ve	2.ryy	2.ryy	2.ryy	2.ryy	2.ryy
.	.	.	.	4G#\	-stra	4d\	-stra	4b\	-stra	4ee\	re-	.	.	.	.	.
=23	=23	=23	=23	=23	=23	=23	=23	=23	=23	=23	=23	=23	=23	=23	=23	=23
*	*	*	*	*	*	*	*	*	*ij	*	*	*	*	*	*	*
2.ryy	2.ryy	2.ryy	2.ryy	2E\	et	2B\	et	2g#X\	et	2ee\	-gi-	2.ryy	2.ryy	2.ryy	2.ryy	2.ryy
.	.	.	.	4E\	spes	4B\	spes	4g#\	spes	4ee\	-na	.	.	.	.	.
!	!	!	!	!LO:LB:g=original	!	!	!	!	!	!LO:LB:g=original	!	!	!	!	!	!
=24	=24	=24	=24	=24	=24	=24	=24	=24	=24	=24	=24	=24	=24	=24	=24	=24
2.ryy	2.ryy	2.ryy	2.ryy	2A\	no-	2c#\	no-	2a\	no-	2ee\	Ma-	2.ryy	2.ryy	2.ryy	2.ryy	2.ryy
.	.	.	.	4A\	-stra	4c#\	-stra	4a\	-stra	4ee\	-ter	.	.	.	.	.
*	*	*	*	*	*	*	*Xij	*	*Xij	*	*	*	*	*	*	*
=25	=25	=25	=25	=25	=25	=25	=25	=25	=25	=25	=25	=25	=25	=25	=25	=25
2.ryy	2.ryy	2.ryy	2.ryy	2A\	Sal-	2c#\	Sal-	2a\	Sal-	2ee\	Mi-	2.ryy	2.ryy	2.ryy	2.ryy	2.ryy
.	.	.	.	4c#\	.	4c#\	.	4b\	.	4ee\	-se-	.	.	.	.	.
=26	=26	=26	=26	=26	=26	=26	=26	=26	=26	=26	=26	=26	=26	=26	=26	=26
2.ryy	2.ryy	2.ryy	2.ryy	4d\	-ve	4d\	-ve	4a\	-ve	4ff#\	-ri-	2.ryy	2.ryy	2.ryy	2.ryy	2.ryy
.	.	.	.	4r	.	4r	.	4r	.	4r	.	.	.	.	.	.
.	.	.	.	4r	.	4r	.	4r	.	4r	.	.	.	.	.	.
!	!	!	!	!	!	!LO:LB:g=original	!	!	!	!	!	!	!	!	!	!
=27	=27	=27	=27	=27	=27	=27	=27	=27	=27	=27	=27	=27	=27	=27	=27	=27
2.ryy	2.ryy	2.ryy	2.ryy	4r	.	4r	.	4r	.	4r	.	2.ryy	2.ryy	2.ryy	2.ryy	2.ryy
.	.	.	.	4G#X\	Re-	4e\	Re-	4b\	Re-	4dd\	-Cor-	.	.	.	.	.
.	.	.	.	4A\	.	4e\	.	4a\	-gi-	4cc#\	.	.	.	.	.	.
!	!	!	!	!	!	!	!	!LO:LB:g=original	!	!	!	!	!	!	!	!
=28	=28	=28	=28	=28	=28	=28	=28	=28	=28	=28	=28	=28	=28	=28	=28	=28
2.ryy	2.ryy	2.ryy	2.ryy	4E\	-gi-	4e\	-gi-	4a\	.	4cc#\	-di-	2.ryy	2.ryy	2.ryy	2.ryy	2.ryy
.	.	.	.	4E\	-na	4e\	-na	4g#X\	-na	4b\	-ae.	.	.	.	.	.
.	.	.	.	4r	.	4r	.	4r	.	4r	.	.	.	.	.	.
=29	=29	=29	=29	=29	=29	=29	=29	=29	=29	=29	=29	=29	=29	=29	=29	=29
2.ryy	2.ryy	2.ryy	2.ryy	2E\	Ma-	2.e\	Ma-	2.b\	Ma-	2.dd\	Sal-	2.ryy	2.ryy	2.ryy	2.ryy	2.ryy
.	.	.	.	4G#X\	.	.	.	.	.	.	.	.	.	.	.	.
=30	=30	=30	=30	=30	=30	=30	=30	=30	=30	=30	=30	=30	=30	=30	=30	=30
2.ryy	2.ryy	2.ryy	2.ryy	2A\	-ter	2e\	-ter	2a\	-ter	2cc#\	-ve	2.ryy	2.ryy	2.ryy	2.ryy	2.ryy
.	.	.	.	4A\	mi-	4e\	mi-	4a\	mi-	4cc#\	Re-	.	.	.	.	.
=31	=31	=31	=31	=31	=31	=31	=31	=31	=31	=31	=31	=31	=31	=31	=31	=31
2.ryy	2.ryy	2.ryy	2.ryy	4G#X\	-se-	2.e\	-se-	4b\	-se-	(4dd\	-gi-	2.ryy	2.ryy	2.ryy	2.ryy	2.ryy
.	.	.	.	4E\	.	.	.	4g#X\	.	4b\	.	.	.	.	.	.
.	.	.	.	4G#\	.	.	.	4b\	.	4dd\)	.	.	.	.	.	.
=32	=32	=32	=32	=32	=32	=32	=32	=32	=32	=32	=32	=32	=32	=32	=32	=32
.	.	.	.	.	.	.	.	.	.	8qdd/	.	.	.	.	.	.
2.ryy	2.ryy	2.ryy	2.ryy	2A\	-ri-	2e\	-ri-	2a\	-ri-	2cc#\	-na	2.ryy	2.ryy	2.ryy	2.ryy	2.ryy
.	.	.	.	4r	.	4r	.	4r	.	4r	.	.	.	.	.	.
!	!	!	!	!LO:LB:g=original	!	!	!	!	!	!LO:LB:g=original	!	!	!	!	!	!
=33	=33	=33	=33	=33	=33	=33	=33	=33	=33	=33	=33	=33	=33	=33	=33	=33
2.ryy	2.ryy	2.ryy	2.ryy	2G#X\	-Cor-	2.e\	-Cor-	2.b\	-Cor-	2.dd\	Ma-	2.ryy	2.ryy	2.ryy	2.ryy	2.ryy
.	.	.	.	4E\	.	.	.	.	.	.	.	.	.	.	.	.
=34	=34	=34	=34	=34	=34	=34	=34	=34	=34	=34	=34	=34	=34	=34	=34	=34
2.ryy	2.ryy	2.ryy	2.ryy	2.A\	.	2.e\	.	2.a\	.	2.cc#\	-ter	2.ryy	2.ryy	2.ryy	2.ryy	2.ryy
=35	=35	=35	=35	=35	=35	=35	=35	=35	=35	=35	=35	=35	=35	=35	=35	=35
2.ryy	2.ryy	2.ryy	2.ryy	2E\	.	2.e\	-di-	4g#X\	.	4b\	Mi-	2.ryy	2.ryy	2.ryy	2.ryy	2.ryy
.	.	.	.	.	.	.	.	4a\	.	4cc#\	.	.	.	.	.	.
.	.	.	.	4G#X\	-di-	.	.	4b\	-di-	4dd\	-se-	.	.	.	.	.
=36	=36	=36	=36	=36	=36	=36	=36	=36	=36	=36	=36	=36	=36	=36	=36	=36
!	!	!	!	!LO:SIC:v:l:s=-ae	!	!	!	!LO:SIC:v:l:s=-ae	!	!	!	!	!	!	!	!
2.ryy	2.ryy	2.ryy	2.ryy	4A\	-e	4e\	-e	4a\	-e	4cc#\	-ri-	2.ryy	2.ryy	2.ryy	2.ryy	2.ryy
.	.	.	.	8r	.	8r	.	8r	.	8r	.	.	.	.	.	.
.	.	.	.	8A\L	vi-	8e\L	vi-	(8a\L	vi-	8cc#\L	-cor-	.	.	.	.	.
.	.	.	.	8B\J	.	8d\J	.	8b\J)	.	8dd\J	.	.	.	.	.	.
.	.	.	.	8c#\	-ta	8c#\	-ta	8a\	-ta	8ee\	.	.	.	.	.	.
!	!	!	!	!	!	!LO:LB:g=original	!	!	!	!	!	!	!	!	!	!
=37	=37	=37	=37	=37	=37	=37	=37	=37	=37	=37	=37	=37	=37	=37	=37	=37
2.ryy	2.ryy	2.ryy	2.ryy	2d\	dul-	2d\	dul-	2b\	dul-	2ff#\	.	2.ryy	2.ryy	2.ryy	2.ryy	2.ryy
.	.	.	.	4B\	-ce-	4d\	-ce-	4b\	-ce-	4ff#\	-di-	.	.	.	.	.
!	!	!	!	!	!	!	!	!LO:LB:g=original	!	!	!	!	!	!	!	!
=38	=38	=38	=38	=38	=38	=38	=38	=38	=38	=38	=38	=38	=38	=38	=38	=38
2.ryy	2.ryy	2.ryy	2.ryy	4G#X\	-do	4B\	-do	4b\	-do	4ff#\	-ae	2.ryy	2.ryy	2.ryy	2.ryy	2.ryy
.	.	.	.	4r	.	4r	.	4r	.	4r	.	.	.	.	.	.
.	.	.	.	4G#\	et	4B\	et	4b\	et	4ff#\	Mi-	.	.	.	.	.
=39	=39	=39	=39	=39	=39	=39	=39	=39	=39	=39	=39	=39	=39	=39	=39	=39
!	!	!	!	!LO:SIC:v:s=2G#\	!	!	!	!	!	!	!	!	!	!	!	!
2.ryy	2.ryy	2.ryy	2.ryy	2G\	spes	2B\	spes	2b\	spes	2ee\	-se-	2.ryy	2.ryy	2.ryy	2.ryy	2.ryy
!	!	!	!	!LO:SIC:v:s=4G#\	!	!	!	!	!	!	!	!	!	!	!	!
.	.	.	.	4G\	no-	4B\	no-	4b\	no-	4ee\	.	.	.	.	.	.
=40	=40	=40	=40	=40	=40	=40	=40	=40	=40	=40	=40	=40	=40	=40	=40	=40
2.ryy	2.ryy	2.ryy	2.ryy	4F#\	-stra	4A\	-stra	4a\	-stra	4ee\	-ri-	2.ryy	2.ryy	2.ryy	2.ryy	2.ryy
.	.	.	.	4r	.	4r	.	4r	.	4r	.	.	.	.	.	.
.	.	.	.	8F#\	et	8A\	et	8a\	et	8ee\	-Cor-	.	.	.	.	.
.	.	.	.	8F#\	spes	8A\	spes	8a\	spes	8ee\	.	.	.	.	.	.
=41	=41	=41	=41	=41	=41	=41	=41	=41	=41	=41	=41	=41	=41	=41	=41	=41
2.ryy	2.ryy	2.ryy	2.ryy	4.F#\	no-	4.A\	no-	4.a\	no-	4.dd\	.	2.ryy	2.ryy	2.ryy	2.ryy	2.ryy
.	.	.	.	8F#\	.	8A\	.	8a\	.	8dd\	-di-	.	.	.	.	.
!	!	!	!	!	!	!	!	!LO:N:vis=8	!	!	!	!	!	!	!	!
.	.	.	.	4F#\	-stra	4A\	-stra	4a\	-stra	4dd\	-ae	.	.	.	.	.
!	!	!	!	!LO:LB:g=original	!	!	!	!	!	!LO:LB:g=original	!	!	!	!	!	!
=42	=42	=42	=42	=42	=42	=42	=42	=42	=42	=42	=42	=42	=42	=42	=42	=42
*	*	*	*	*	*ij	*	*	*	*ij	*	*	*	*	*	*	*
2.ryy	2.ryy	2.ryy	2.ryy	2E\	no-	2G#X/	no-	2g#X\	no-	2dd\	Vi-	2.ryy	2.ryy	2.ryy	2.ryy	2.ryy
.	.	.	.	4E\	-stra	4G#/	-ſtra	4g#\	-stra	4dd\	.	.	.	.	.	.
*	*	*	*	*	*Xij	*	*	*	*Xij	*	*	*	*	*	*	*
=43	=43	=43	=43	=43	=43	=43	=43	=43	=43	=43	=43	=43	=43	=43	=43	=43
!	!	!	!	!	!	!LO:SIC:v:s=2.G#/	!	!	!	!	!	!	!	!	!	!
2.ryy	2.ryy	2.ryy	2.ryy	2.E\	Sal-	2.G/	Sal-	2.g#X\	Sal-	2.cc#\	-ta	2.ryy	2.ryy	2.ryy	2.ryy	2.ryy
=44	=44	=44	=44	=44	=44	=44	=44	=44	=44	=44	=44	=44	=44	=44	=44	=44
2.ryy	2.ryy	2.ryy	2.ryy	2.D\	.	2.F#/	.	2.f#\	.	2.cc#\	dul-	2.ryy	2.ryy	2.ryy	2.ryy	2.ryy
=45	=45	=45	=45	=45	=45	=45	=45	=45	=45	=45	=45	=45	=45	=45	=45	=45
2.ryy	2.ryy	2.ryy	2.ryy	2.D\	.	2.f#\	.	2.f#\	.	2.b\	-ce-	2.ryy	2.ryy	2.ryy	2.ryy	2.ryy
!	!	!	!	!	!	!LO:LB:g=original	!	!	!	!	!	!	!	!	!	!
=46	=46	=46	=46	=46	=46	=46	=46	=46	=46	=46	=46	=46	=46	=46	=46	=46
2.ryy	2.ryy	2.ryy	2.ryy	2.D#X\	.	2.f#\	.	2.f#\	.	2.b\	-do	2.ryy	2.ryy	2.ryy	2.ryy	2.ryy
=47	=47	=47	=47	=47	=47	=47	=47	=47	=47	=47	=47	=47	=47	=47	=47	=47
!	!	!	!	!LO:SIC:v:s=2.D#\	!	!	!	!	!	!	!	!	!	!	!	!
2.ryy	2.ryy	2.ryy	2.ryy	2.D\	.	2.B\	.	2.f#\	.	2.a\	Sal-	2.ryy	2.ryy	2.ryy	2.ryy	2.ryy
!	!	!	!	!	!	!	!	!LO:LB:g=original	!	!	!	!	!	!	!	!
=48	=48	=48	=48	=48	=48	=48	=48	=48	=48	=48	=48	=48	=48	=48	=48	=48
2.ryy	2.ryy	2.ryy	2.ryy	4E\	-ve	4B\	-ve	4e\	-ve	4g#X\	-ve.	2.ryy	2.ryy	2.ryy	2.ryy	2.ryy
.	.	.	.	4r	.	4r	.	4r	.	4r	.	.	.	.	.	.
.	.	.	.	4r	.	4r	.	4r	.	4r	.	.	.	.	.	.
=49	=49	=49	=49	=49	=49	=49	=49	=49	=49	=49	=49	=49	=49	=49	=49	=49
!	!	!	!	!	!	!LO:TX:t=P:problem:dwie kreski nad 2. [podział na sylaby]	!	!	!	!	!	!	!	!	!	!
2.ryy	2.ryy	2.ryy	2.ryy	4r	.	2.e\	gemen-	4cc#\	Ge-	(4a\	Ma-	2.ryy	2.ryy	2.ryy	2.ryy	2.ryy
.	.	.	.	4G#X\	Ge-	.	.	4b\	.	4dd\	.	.	.	.	.	.
.	.	.	.	4A\	-men-	.	.	4a\	-men-	4cc#\)	.	.	.	.	.	.
=50	=50	=50	=50	=50	=50	=50	=50	=50	=50	=50	=50	=50	=50	=50	=50	=50
2.ryy	2.ryy	2.ryy	2.ryy	4E\	-tes	4e\	-tes	4g#X\	-tes.	4b\	-ter	2.ryy	2.ryy	2.ryy	2.ryy	2.ryy
.	.	.	.	4r	.	4r	.	4r	.	4r	.	.	.	.	.	.
.	.	.	.	4r	.	4r	.	4r	.	4r	.	.	.	.	.	.
=51	=51	=51	=51	=51	=51	=51	=51	=51	=51	=51	=51	=51	=51	=51	=51	=51
!	!	!	!	!	!	!LO:TX:t=P:problem:dwie kreski nad 2. [podział na sylaby]	!	!	!	!	!	!	!	!	!	!
2.ryy	2.ryy	2.ryy	2.ryy	4r	.	2.e\	et flen-	4cc#\	et	(4a\	mi-	2.ryy	2.ryy	2.ryy	2.ryy	2.ryy
.	.	.	.	4G#X\	et	.	.	4b\	.	4dd\	.	.	.	.	.	.
.	.	.	.	4A\	flen-	.	.	4a\	flen-	4cc#\)	-se-	.	.	.	.	.
=52	=52	=52	=52	=52	=52	=52	=52	=52	=52	=52	=52	=52	=52	=52	=52	=52
2.ryy	2.ryy	2.ryy	2.ryy	4E\	-tes	4e\	-tes	4g#X\	-tes	4b\	-ri-	2.ryy	2.ryy	2.ryy	2.ryy	2.ryy
.	.	.	.	4r	.	4r	.	4r	.	4r	.	.	.	.	.	.
.	.	.	.	4r	.	4r	.	4r	.	4r	.	.	.	.	.	.
!	!	!	!	!LO:LB:g=original	!	!	!	!	!	!LO:LB:g=original	!	!	!	!	!	!
=53	=53	=53	=53	=53	=53	=53	=53	=53	=53	=53	=53	=53	=53	=53	=53	=53
!	!	!	!	!	!	!LO:TX:t=P:problem:dwie kreski nad 2. [podział na sylaby]	!	!	!	!	!	!	!	!	!	!
2.ryy	2.ryy	2.ryy	2.ryy	4r	.	2.e\	in hac	4cc#\	in	(4a\	-cor-	2.ryy	2.ryy	2.ryy	2.ryy	2.ryy
.	.	.	.	4G#X\	in	.	.	4b\	.	4dd\	.	.	.	.	.	.
.	.	.	.	4A\	hac	.	.	4a\	hac	4cc#\)	-di-	.	.	.	.	.
=54	=54	=54	=54	=54	=54	=54	=54	=54	=54	=54	=54	=54	=54	=54	=54	=54
2.ryy	2.ryy	2.ryy	2.ryy	4E\	la-	4e\	la-	4g#X\	la-	4b\	-e	2.ryy	2.ryy	2.ryy	2.ryy	2.ryy
!	!	!	!	!LO:SIC:v:l:s=-cri-	!	!LO:SIC:v:l:s=-cri-	!	!LO:SIC:v:l:s=-cri-	!	!	!	!	!	!	!	!
.	.	.	.	8E\	-hri-	8E/	-hri-	8e\	-hri-	8e/	vi-	.	.	.	.	.
.	.	.	.	8E\	-ma-	8E/	-ma-	8e\	-ma-	8e/	-ta	.	.	.	.	.
!	!	!	!	!	!	!LO:N:vis=8	!	!	!	!	!	!	!	!	!	!
.	.	.	.	4E\	-rum	4E/	-rum	4e\	-rum	4e/	dul-	.	.	.	.	.
=55	=55	=55	=55	=55	=55	=55	=55	=55	=55	=55	=55	=55	=55	=55	=55	=55
2.ryy	2.ryy	2.ryy	2.ryy	2E\	val-	2E/	val-	2e\	val-	2g#X/	-ce-	2.ryy	2.ryy	2.ryy	2.ryy	2.ryy
.	.	.	.	4E\	.	4E/	.	4e\	.	4g#/	-do	.	.	.	.	.
!	!	!	!	!	!	!LO:LB:g=original	!	!	!	!	!	!	!	!	!	!
=56	=56	=56	=56	=56	=56	=56	=56	=56	=56	=56	=56	=56	=56	=56	=56	=56
2.ryy	2.ryy	2.ryy	2.ryy	2E\	.	2E/	.	2g#X\	.	2b\	Sal-	2.ryy	2.ryy	2.ryy	2.ryy	2.ryy
.	.	.	.	4E\	.	4E/	.	4g#\	.	4b\	.	.	.	.	.	.
!	!	!	!	!	!	!	!	!LO:LB:g=original	!	!	!	!	!	!	!	!
=57	=57	=57	=57	=57	=57	=57	=57	=57	=57	=57	=57	=57	=57	=57	=57	=57
2.ryy	2.ryy	2.ryy	2.ryy	4E\	-le	4G#X/	-le	4b\	-le	4dd\	-ve	2.ryy	2.ryy	2.ryy	2.ryy	2.ryy
.	.	.	.	4r	.	4r	.	4r	.	4r	.	.	.	.	.	.
.	.	.	.	4r	.	4r	.	4r	.	4r	.	.	.	.	.	.
=58	=58	=58	=58	=58	=58	=58	=58	=58	=58	=58	=58	=58	=58	=58	=58	=58
2.ryy	2.ryy	2.ryy	2.ryy	2.r	.	2.r	.	2.r	.	2.r	.	2.ryy	2.ryy	2.ryy	2.ryy	2.ryy
=59	=59	=59	=59	=59	=59	=59	=59	=59	=59	=59	=59	=59	=59	=59	=59	=59
2.ryy	2.ryy	2.ryy	2.ryy	4r	.	4r	.	4r	.	4r	.	2.ryy	2.ryy	2.ryy	2.ryy	2.ryy
.	.	.	.	4C#/	Sal-	4c#\	Sal-	2a\	Sal-	4ee\	et	.	.	.	.	.
.	.	.	.	4D/	.	4d\	.	.	.	4ff#\	.	.	.	.	.	.
=60	=60	=60	=60	=60	=60	=60	=60	=60	=60	=60	=60	=60	=60	=60	=60	=60
2.ryy	2.ryy	2.ryy	2.ryy	4C#/	-ve	4c#\	-ve	4a\	-ve	4ee\	spes	2.ryy	2.ryy	2.ryy	2.ryy	2.ryy
.	.	.	.	4r	.	4r	.	4r	.	4r	.	.	.	.	.	.
.	.	.	.	4A\	Re-	4e\	Re-	4a\	Re-	4cc#\	spes	.	.	.	.	.
=61	=61	=61	=61	=61	=61	=61	=61	=61	=61	=61	=61	=61	=61	=61	=61	=61
2.ryy	2.ryy	2.ryy	2.ryy	4r	.	4r	.	4r	.	4r	.	2.ryy	2.ryy	2.ryy	2.ryy	2.ryy
.	.	.	.	4G#X\	-gi-	2e\	-gi-	2b\	-gi-	2dd\	no-	.	.	.	.	.
.	.	.	.	4E\	.	.	.	.	.	.	.	.	.	.	.	.
!	!	!	!	!LO:LB:g=original	!	!	!	!	!	!	!	!	!	!	!	!
=62	=62	=62	=62	=62	=62	=62	=62	=62	=62	=62	=62	=62	=62	=62	=62	=62
2.ryy	2.ryy	2.ryy	2.ryy	4A\	-na	4e\	-na	4a\	-na	4cc#\	-stra	2.ryy	2.ryy	2.ryy	2.ryy	2.ryy
.	.	.	.	4r	.	4r	.	4r	.	4r	.	.	.	.	.	.
.	.	.	.	4r	.	4r	.	4r	.	4r	.	.	.	.	.	.
!	!	!	!	!	!	!	!	!	!	!LO:LB:g=original	!	!	!	!	!	!
=63	=63	=63	=63	=63	=63	=63	=63	=63	=63	=63	=63	=63	=63	=63	=63	=63
2.ryy	2.ryy	2.ryy	2.ryy	4r	.	4r	.	4r	.	4r	.	2.ryy	2.ryy	2.ryy	2.ryy	2.ryy
.	.	.	.	4AA/	Ma-	4c#\	ma-	4a\	Ma-	4ee\	Sal-	.	.	.	.	.
.	.	.	.	4C#/	.	4c#\	.	4a\	.	4ee#X\	.	.	.	.	.	.
=64	=64	=64	=64	=64	=64	=64	=64	=64	=64	=64	=64	=64	=64	=64	=64	=64
2.ryy	2.ryy	2.ryy	2.ryy	4D/	-ter	4d\	-ter	4a\	-ter	4ff#\	-ve	2.ryy	2.ryy	2.ryy	2.ryy	2.ryy
.	.	.	.	4r	.	4r	.	4r	.	4r	.	.	.	.	.	.
.	.	.	.	4r	.	4r	.	4r	.	4r	.	.	.	.	.	.
=65	=65	=65	=65	=65	=65	=65	=65	=65	=65	=65	=65	=65	=65	=65	=65	=65
2.ryy	2.ryy	2.ryy	2.ryy	2E\	ma-	2c#\	Ma-	2e\	Ma-	2a\	vi-	2.ryy	2.ryy	2.ryy	2.ryy	2.ryy
.	.	.	.	4E\	-ter	4c#\	-ter.	4e\	-ter	4a\	-ta	.	.	.	.	.
!	!	!	!	!	!	!LO:LB:g=original	!	!	!	!	!	!	!	!	!	!
=66	=66	=66	=66	=66	=66	=66	=66	=66	=66	=66	=66	=66	=66	=66	=66	=66
2.ryy	2.ryy	2.ryy	2.ryy	2E\	mi-	2c#\	mi-	2e\	mi-	2a\	dul-	2.ryy	2.ryy	2.ryy	2.ryy	2.ryy
.	.	.	.	4E\	-se-	4c#\	-se-	4e\	-se-	4a\	-ce-	.	.	.	.	.
=67	=67	=67	=67	=67	=67	=67	=67	=67	=67	=67	=67	=67	=67	=67	=67	=67
2.ryy	2.ryy	2.ryy	2.ryy	4E\	-ri-	4d\	-ri-	4e\	-ri-	4a\	-do	2.ryy	2.ryy	2.ryy	2.ryy	2.ryy
.	.	.	.	4E\	.	4d\	.	4e\	.	4a\	et	.	.	.	.	.
.	.	.	.	4E\	-cor-	4d\	-cor-	4e\	-cor-	4a\	spes	.	.	.	.	.
!	!	!	!	!	!	!	!	!LO:LB:g=original	!	!	!	!	!	!	!	!
=68	=68	=68	=68	=68	=68	=68	=68	=68	=68	=68	=68	=68	=68	=68	=68	=68
2.ryy	2.ryy	2.ryy	2.ryy	2.E\	-di-	2.d\	-di-	2.e\	-di-	2.g#X\	no-	2.ryy	2.ryy	2.ryy	2.ryy	2.ryy
=69	=69	=69	=69	=69	=69	=69	=69	=69	=69	=69	=69	=69	=69	=69	=69	=69
!	!	!	!	!LO:SIC:v:l:s=-ae	!	!LO:SIC:v:l:s=-ae	!	!LO:SIC:v:l:s=-ae	!	!	!	!	!	!	!	!
2.ryy	2.ryy	2.ryy	2.ryy	2AA/	-e	2c#\	-e.	2e\	-e	2a\	-stra	2.ryy	2.ryy	2.ryy	2.ryy	2.ryy
.	.	.	.	4r	.	4r	.	4r	.	4r	.	.	.	.	.	.
=70	=70	=70	=70	=70	=70	=70	=70	=70	=70	=70	=70	=70	=70	=70	=70	=70
!	!	!	!	!	!	!	!	!LO:TX:a:t=2	!	!	!	!	!	!	!	!
2.ryy	2.ryy	2.ryy	2.ryy	1.r	.	4D/	ad	1.r	.	4d/	vi-	2.ryy	2.ryy	2.ryy	2.ryy	2.ryy
.	.	.	.	.	.	4D/	te	.	.	4d/	-ta	.	.	.	.	.
.	.	.	.	.	.	4D/	cla-	.	.	4d/	dul-	.	.	.	.	.
=71	=71	=71	=71	=71	=71	=71	=71	=71	=71	=71	=71	=71	=71	=71	=71	=71
2.ryy	2.ryy	2.ryy	2.ryy	.	.	2D/	-ma-	.	.	2d/	-ce-	2.ryy	2.ryy	2.ryy	2.ryy	2.ryy
.	.	.	.	.	.	4D/	-mus	.	.	4d/	-do	.	.	.	.	.
=72	=72	=72	=72	=72	=72	=72	=72	=72	=72	=72	=72	=72	=72	=72	=72	=72
*	*	*	*	*	*	*	*ij	*	*	*	*	*	*	*	*	*
2.ryy	2.ryy	2.ryy	2.ryy	4D\	ad	4F#/	ad	4d\	ad	4f#/	vi-	2.ryy	2.ryy	2.ryy	2.ryy	2.ryy
.	.	.	.	4D\	te	4F#/	te	4d\	te	4f#/	-ta	.	.	.	.	.
.	.	.	.	4D\	cla-	4F#/	cla-	4d\	cla-	4f#/	dul-	.	.	.	.	.
!	!	!	!	!LO:LB:g=original	!	!	!	!	!	!LO:LB:g=original	!	!	!	!	!	!
=73	=73	=73	=73	=73	=73	=73	=73	=73	=73	=73	=73	=73	=73	=73	=73	=73
2.ryy	2.ryy	2.ryy	2.ryy	2D\	-ma-	2F#/	-ma-	2d\	-ma-	2f#/	-ce-	2.ryy	2.ryy	2.ryy	2.ryy	2.ryy
.	.	.	.	4F#\	-mus	4A/	-mus	4f#\	-mus	4a\	-do	.	.	.	.	.
*	*	*	*	*	*	*	*Xij	*	*	*	*	*	*	*	*	*
=74	=74	=74	=74	=74	=74	=74	=74	=74	=74	=74	=74	=74	=74	=74	=74	=74
2.ryy	2.ryy	2.ryy	2.ryy	2G\	ad	2B\	ad	2g\	ad	2b\	et	2.ryy	2.ryy	2.ryy	2.ryy	2.ryy
.	.	.	.	4F#\	te	4A\	te	4f#\	te	4a\	spes	.	.	.	.	.
!	!	!	!	!	!	!LO:LB:g=original	!	!	!	!	!	!	!	!	!	!
=75	=75	=75	=75	=75	=75	=75	=75	=75	=75	=75	=75	=75	=75	=75	=75	=75
2.ryy	2.ryy	2.ryy	2.ryy	2G\	su-	2B\	Su-	2g\	Sus-	2b\	no-	2.ryy	2.ryy	2.ryy	2.ryy	2.ryy
.	.	.	.	4E\	-spi-	4c#\	-spi-	4e\	-spi-	4cc#\	-stra	.	.	.	.	.
=76	=76	=76	=76	=76	=76	=76	=76	=76	=76	=76	=76	=76	=76	=76	=76	=76
2.ryy	2.ryy	2.ryy	2.ryy	4d\	-ra-	4d\	-ra-	4f#\	-ra-	4dd\	no-	2.ryy	2.ryy	2.ryy	2.ryy	2.ryy
.	.	.	.	4A\	.	4d\	.	4a\	.	4ff#\	.	.	.	.	.	.
.	.	.	.	4F#\	-mus	4d\	-mus	4a\	-mus	4ff#\	-stra	.	.	.	.	.
=77	=77	=77	=77	=77	=77	=77	=77	=77	=77	=77	=77	=77	=77	=77	=77	=77
2.ryy	2.ryy	2.ryy	2.ryy	2D\	ge-	2d\	ge-	2a\	ge-	2ff#\	Sal-	2.ryy	2.ryy	2.ryy	2.ryy	2.ryy
.	.	.	.	8F#\L	-men-	4d\	-men-	4a\	-men-	4ff#\	-ve	.	.	.	.	.
.	.	.	.	8A\J	.	.	.	.	.	.	.	.	.	.	.	.
=78	=78	=78	=78	=78	=78	=78	=78	=78	=78	=78	=78	=78	=78	=78	=78	=78
2.ryy	2.ryy	2.ryy	2.ryy	4d\	-tes	4d\	-tes	4b\	-tes	4gg\	ge-	2.ryy	2.ryy	2.ryy	2.ryy	2.ryy
.	.	.	.	4B\	et	4d\	et	4b\	et	4gg\	-men-	.	.	.	.	.
.	.	.	.	8G\	flen-	8d\	flen-	8b\	flen-	8gg\	-tes	.	.	.	.	.
.	.	.	.	8G\	-tes	8d\	-tes	8b\	-tes	8gg\	et	.	.	.	.	.
!	!	!	!	!	!	!	!	!LO:LB:g=original	!	!	!	!	!	!	!	!
=79	=79	=79	=79	=79	=79	=79	=79	=79	=79	=79	=79	=79	=79	=79	=79	=79
2.ryy	2.ryy	2.ryy	2.ryy	4.D\	in	4.d\	Jn	4.b\	Jn	4.gg\	flent-	2.ryy	2.ryy	2.ryy	2.ryy	2.ryy
.	.	.	.	8G\	.	8d\	.	8b\	.	8gg\	.	.	.	.	.	.
.	.	.	.	4B\	hac	4d\	hac	4b\	hac	4gg\	-es	.	.	.	.	.
=80	=80	=80	=80	=80	=80	=80	=80	=80	=80	=80	=80	=80	=80	=80	=80	=80
2.ryy	2.ryy	2.ryy	2.ryy	4d\	la-	4d\	la-	4a\	la-	4ff#\	in	2.ryy	2.ryy	2.ryy	2.ryy	2.ryy
!	!	!	!	!LO:SIC:v:l:s=-cri-	!	!LO:SIC:v:l:s=-cri-	!	!LO:SIC:v:l:s=-cri-	!	!LO:SIC:v:l:s=hac	!	!	!	!	!	!
.	.	.	.	4A\	-hri-	4d\	-hri-	4a\	-hri-	4ff#\	chac	.	.	.	.	.
!	!	!	!	!LO:LB:g=original	!	!	!	!	!	!	!	!	!	!	!	!
.	.	.	.	8F#\	-ma-	8d\	-ma-	8a\	-ma-	8ff#\	la-	.	.	.	.	.
!	!	!	!	!	!	!	!	!	!	!LO:SIC:v:l:s=-cri-	!	!	!	!	!	!
.	.	.	.	8F#\	-rum	8d\	-rum	8a\	-rum	8ff#\	-hri-	.	.	.	.	.
!	!	!	!	!	!	!	!	!	!	!LO:LB:g=original	!	!	!	!	!	!
=81	=81	=81	=81	=81	=81	=81	=81	=81	=81	=81	=81	=81	=81	=81	=81	=81
2.ryy	2.ryy	2.ryy	2.ryy	4.D\	la-	4.d\	la-	8a\	la-	8.ff#\	-ma-	2.ryy	2.ryy	2.ryy	2.ryy	2.ryy
!	!	!	!	!	!	!	!	!LO:SIC:v:l:s=-cri-	!	!	!	!	!	!	!	!
.	.	.	.	.	.	.	.	8a\	-hri-	.	.	.	.	.	.	.
.	.	.	.	.	.	.	.	.	.	16ff#\	-rum	.	.	.	.	.
.	.	.	.	.	.	.	.	4a\	-ma-	4ff#\	val-	.	.	.	.	.
!	!	!	!	!LO:SIC:v:l:s=-cri-	!	!LO:SIC:v:l:s=-cri-	!	!	!	!	!	!	!	!	!	!
.	.	.	.	8F#\	-hri-	8d\	-hri-	.	.	.	.	.	.	.	.	.
.	.	.	.	8A\	-ma-	8d\	-ma-	4a\	-rum	4ff#\	-le	.	.	.	.	.
.	.	.	.	8d\	-rum	8d\	-rum	.	.	.	.	.	.	.	.	.
!	!	!	!	!	!	!LO:LB:g=original	!	!	!	!	!	!	!	!	!	!
=82	=82	=82	=82	=82	=82	=82	=82	=82	=82	=82	=82	=82	=82	=82	=82	=82
2.ryy	2.ryy	2.ryy	2.ryy	4A\	val-	4A\	la-	4g\	val-	4ee\	ge-	2.ryy	2.ryy	2.ryy	2.ryy	2.ryy
!	!	!	!	!	!	!LO:SIC:v:l:s=-cri-	!	!	!	!	!	!	!	!	!	!
.	.	.	.	4AA/	.	8A\	-chri-	4g\	.	4ee\	-men-	.	.	.	.	.
.	.	.	.	.	.	8A\	.	.	.	.	.	.	.	.	.	.
.	.	.	.	8C#/L	-le	8A\	-ma-	4g\	-le	4ee\	-tes	.	.	.	.	.
.	.	.	.	8AA/J	.	8A\	-Rum	.	.	.	.	.	.	.	.	.
=83	=83	=83	=83	=83	=83	=83	=83	=83	=83	=83	=83	=83	=83	=83	=83	=83
!	!	!	!	!	!	!LO:TX:t=P:problem:dwie kreski nad 2. [podział na sylaby]	!	!	!	!	!	!	!	!	!	!
2.ryy	2.ryy	2.ryy	2.ryy	4.D\	ad	2.A\	ad te	4.f#\	ad	4.dd\	et	2.ryy	2.ryy	2.ryy	2.ryy	2.ryy
.	.	.	.	8D\	.	.	.	8f#\	.	8dd\	flen-	.	.	.	.	.
.	.	.	.	4D\	te	.	.	4f#\	te	4dd\	-tes	.	.	.	.	.
=84	=84	=84	=84	=84	=84	=84	=84	=84	=84	=84	=84	=84	=84	=84	=84	=84
2.ryy	2.ryy	2.ryy	2.ryy	4.A\	cla-	4.A\	cla-ma-	8e\	cla-	8cc#\	in	2.ryy	2.ryy	2.ryy	2.ryy	2.ryy
.	.	.	.	.	.	.	.	8e\	-ma-	8cc#\	hac	.	.	.	.	.
.	.	.	.	.	.	.	.	4e\	-mus	4cc#\	la-	.	.	.	.	.
.	.	.	.	8E\	-ma-	8A\	-mus	.	.	.	.	.	.	.	.	.
!	!	!	!	!	!	!	!	!	!	!LO:SIC:v:l:s=-cri-	!	!	!	!	!	!
.	.	.	.	8C#/	-mus	8A\	ad	8e\	ad	8cc#\	-chri-	.	.	.	.	.
.	.	.	.	8AA/	ad	8A\	te	8e\	te	8cc#\	-ma-	.	.	.	.	.
!	!	!	!	!	!	!	!	!LO:LB:g=original	!	!	!	!	!	!	!	!
=85	=85	=85	=85	=85	=85	=85	=85	=85	=85	=85	=85	=85	=85	=85	=85	=85
2.ryy	2.ryy	2.ryy	2.ryy	4D\	te	4A\	su-	2f#\	sus-	2.dd\	-rum	2.ryy	2.ryy	2.ryy	2.ryy	2.ryy
.	.	.	.	4D\	su-	4A\	.	.	.	.	.	.	.	.	.	.
.	.	.	.	4D\	-spi-	4A\	-spi-	4f#\	-pi-	.	.	.	.	.	.	.
=86	=86	=86	=86	=86	=86	=86	=86	=86	=86	=86	=86	=86	=86	=86	=86	=86
2.ryy	2.ryy	2.ryy	2.ryy	2AA/	-ra-	2A\	-ra-	2g\	-ra-	2ee\	val-	2.ryy	2.ryy	2.ryy	2.ryy	2.ryy
.	.	.	.	4C#/	-mus	4A\	-mus	4g\	-mus	4ee\	-le	.	.	.	.	.
!	!	!	!	!LO:LB:g=original	!	!	!	!	!	!LO:LB:g=original	!	!	!	!	!	!
=87	=87	=87	=87	=87	=87	=87	=87	=87	=87	=87	=87	=87	=87	=87	=87	=87
2.ryy	2.ryy	2.ryy	2.ryy	4.D\	ge-	8A\	ge-	4.f#\	ge-	4.dd\	Sal-	2.ryy	2.ryy	2.ryy	2.ryy	2.ryy
.	.	.	.	.	.	8A\	-men-	.	.	.	.	.	.	.	.	.
.	.	.	.	.	.	4A\	-tes	.	.	.	.	.	.	.	.	.
.	.	.	.	8D\	-men-	.	.	8f#\	-men-	8dd\	-ve	.	.	.	.	.
.	.	.	.	8F#\	-tes	4A\	et	8f#\	-tes	8dd\	Re-	.	.	.	.	.
.	.	.	.	8D\	et	.	.	8f#\	et	8dd\	-gi-	.	.	.	.	.
!	!	!	!	!	!	!LO:LB:g=original	!	!	!	!	!	!	!	!	!	!
=88	=88	=88	=88	=88	=88	=88	=88	=88	=88	=88	=88	=88	=88	=88	=88	=88
2.ryy	2.ryy	2.ryy	2.ryy	2.A\	flen-	2.A\	flen-	2.e\	flen-	2.cc#\	-na	2.ryy	2.ryy	2.ryy	2.ryy	2.ryy
=89	=89	=89	=89	=89	=89	=89	=89	=89	=89	=89	=89	=89	=89	=89	=89	=89
2.ryy	2.ryy	2.ryy	2.ryy	4.D\	-tes	4.A\	-tes	4.f#\	-tes	4.dd\	Ma-	2.ryy	2.ryy	2.ryy	2.ryy	2.ryy
.	.	.	.	8D\	in	8A\	in	8f#\	in	8dd\	-ter	.	.	.	.	.
.	.	.	.	4D\	hac	4A\	hac	4f#\	hac	4dd\	mi-	.	.	.	.	.
=90	=90	=90	=90	=90	=90	=90	=90	=90	=90	=90	=90	=90	=90	=90	=90	=90
2.ryy	2.ryy	2.ryy	2.ryy	4G\	la-	4d\	la-	4g\	la-	4b\	-se-	2.ryy	2.ryy	2.ryy	2.ryy	2.ryy
!	!	!	!	!LO:SIC:v:l:s=-cri-	!	!LO:SIC:v:l:s=-cri-	!	!LO:SIC:v:l:s=-cri-	!	!	!	!	!	!	!	!
.	.	.	.	4G\	-hri-	4d\	-hri-	4g\	-hri-	4b\	.	.	.	.	.	.
.	.	.	.	4G\	-ma-	4d\	-ma-	4g\	-ma-	4b\	.	.	.	.	.	.
=91	=91	=91	=91	=91	=91	=91	=91	=91	=91	=91	=91	=91	=91	=91	=91	=91
2.ryy	2.ryy	2.ryy	2.ryy	4F#\	-rum	2d\	-rum	4f#\	-rum	4a\	.	2.ryy	2.ryy	2.ryy	2.ryy	2.ryy
.	.	.	.	4D\	.	.	.	4d\	.	4f#\	.	.	.	.	.	.
.	.	.	.	4F#\	val-	4d\	val-	4f#\	val-	4a\	-ri-	.	.	.	.	.
!	!	!	!	!	!	!	!	!LO:LB:g=original	!	!	!	!	!	!	!	!
=92	=92	=92	=92	=92	=92	=92	=92	=92	=92	=92	=92	=92	=92	=92	=92	=92
2.ryy	2.ryy	2.ryy	2.ryy	2G\	.	2d\	.	4g\	.	4b\	-cor-	2.ryy	2.ryy	2.ryy	2.ryy	2.ryy
.	.	.	.	.	.	.	.	4b\	.	4dd\	.	.	.	.	.	.
.	.	.	.	4G\	.	4d\	.	4g\	.	4b\	.	.	.	.	.	.
=93	=93	=93	=93	=93	=93	=93	=93	=93	=93	=93	=93	=93	=93	=93	=93	=93
2.ryy	2.ryy	2.ryy	2.ryy	4D\	.	4d\	.	4f#\	.	4a\	-di-	2.ryy	2.ryy	2.ryy	2.ryy	2.ryy
!	!	!	!	!	!	!	!	!	!	!LO:SIC:v:l:s=-ae	!	!	!	!	!	!
.	.	.	.	4D\	-le	4d\	-le.	4f#\	-le	4a\	-e	.	.	.	.	.
.	.	.	.	4r	.	4r	.	4r	.	4r	.	.	.	.	.	.
!	!	!	!	!	!	!	!	!	!	!LO:LB:g=original	!	!	!	!	!	!
=94	=94	=94	=94	=94	=94	=94	=94	=94	=94	=94	=94	=94	=94	=94	=94	=94
2.ryy	2.ryy	2.ryy	2.ryy	4.A\	vi-	4.e\	Vi-	4.g\	Vi-	4.cc#\	ge-	2.ryy	2.ryy	2.ryy	2.ryy	2.ryy
.	.	.	.	8A\	-ta	8e\	-ta	8g\	-ta	8cc#\	.	.	.	.	.	.
.	.	.	.	8c#\	dul-	8e\	dul-	8g\	dul-	8cc#\	-men-	.	.	.	.	.
.	.	.	.	8A\	-ce-	8e\	-ce-	8g\	-ce-	8cc#\	-tes	.	.	.	.	.
!	!	!	!	!LO:LB:g=original	!	!LO:LB:g=original	!	!	!	!	!	!	!	!	!	!
=95	=95	=95	=95	=95	=95	=95	=95	=95	=95	=95	=95	=95	=95	=95	=95	=95
2.ryy	2.ryy	2.ryy	2.ryy	4d\	-do	8f#\	-do	8a\	-do	8dd\	et	2.ryy	2.ryy	2.ryy	2.ryy	2.ryy
.	.	.	.	.	.	8f#\	et	8a\	et	8dd\	.	.	.	.	.	.
.	.	.	.	4D\	et	4f#\	spes	4a\	spes	4dd\	.	.	.	.	.	.
.	.	.	.	8F#\	spes	4f#\	no-	4a\	no-	4dd\	flen-	.	.	.	.	.
.	.	.	.	8D\	no-	.	.	.	.	.	.	.	.	.	.	.
=96	=96	=96	=96	=96	=96	=96	=96	=96	=96	=96	=96	=96	=96	=96	=96	=96
2.ryy	2.ryy	2.ryy	2.ryy	4A\	-stra	4e\	-stra	4a\	-stra	4cc#\	-tes	2.ryy	2.ryy	2.ryy	2.ryy	2.ryy
.	.	.	.	4r	.	4r	.	4r	.	4r	.	.	.	.	.	.
.	.	.	.	4r	.	4r	.	4r	.	4r	.	.	.	.	.	.
=97	=97	=97	=97	=97	=97	=97	=97	=97	=97	=97	=97	=97	=97	=97	=97	=97
2.ryy	2.ryy	2.ryy	2.ryy	4D\	Sal-	4A\	Sal-	4f#\	Sal-	4dd\	in	2.ryy	2.ryy	2.ryy	2.ryy	2.ryy
.	.	.	.	4C#\	.	4A\	.	4g\	.	4ee\	.	.	.	.	.	.
.	.	.	.	4D\	.	4A\	.	4a\	.	4ff#\	hac	.	.	.	.	.
!	!	!	!	!	!	!	!	!LO:PB:g=original	!	!	!	!	!	!	!	!
=98	=98	=98	=98	=98	=98	=98	=98	=98	=98	=98	=98	=98	=98	=98	=98	=98
2.ryy	2.ryy	2.ryy	2.ryy	4G\	.	4B\	.	8b\L	.	(8gg\L	la-	2.ryy	2.ryy	2.ryy	2.ryy	2.ryy
.	.	.	.	.	.	.	.	8g\J	.	8ee\J)	.	.	.	.	.	.
!	!	!	!	!	!	!	!	!	!	!LO:SIC:v:l:s=-cri-	!	!	!	!	!	!
.	.	.	.	4A\	.	4A\	.	4f#\	.	4dd\	-hri-	.	.	.	.	.
.	.	.	.	4AA/	.	4A\	.	4e\	.	4cc#\	-ma-	.	.	.	.	.
=99	=99	=99	=99	=99	=99	=99	=99	=99	=99	=99	=99	=99	=99	=99	=99	=99
2.ryy	2.ryy	2.ryy	2.ryy	2D\	-ve	2A\	-ve.	2f#\	-ve	2dd\	-rum	2.ryy	2.ryy	2.ryy	2.ryy	2.ryy
.	.	.	.	4r	.	4r	.	4r	.	4r	.	.	.	.	.	.
!	!	!	!	!	!	!	!	!	!	!LO:PB:g=original	!	!	!	!	!	!
=100	=100	=100	=100	=100	=100	=100	=100	=100	=100	=100	=100	=100	=100	=100	=100	=100
2.ryy	2.ryy	2.ryy	2.ryy	2A\	E-	2A\	E-	2e\	E-	2cc#\	in	2.ryy	2.ryy	2.ryy	2.ryy	2.ryy
.	.	.	.	4A\	-ia	4A\	-ia	4e\	-ia	4cc#\	hac	.	.	.	.	.
=101	=101	=101	=101	=101	=101	=101	=101	=101	=101	=101	=101	=101	=101	=101	=101	=101
2.ryy	2.ryy	2.ryy	2.ryy	2F#\	er-	2A\	er-	2f#\	er-	2dd\	la-	2.ryy	2.ryy	2.ryy	2.ryy	2.ryy
!	!	!	!	!	!	!	!	!	!	!LO:SIC:v:l:s=-cri-	!	!	!	!	!	!
.	.	.	.	4F#\	-go	4A\	-go	4f#\	-go	4dd\	-hri-	.	.	.	.	.
=102	=102	=102	=102	=102	=102	=102	=102	=102	=102	=102	=102	=102	=102	=102	=102	=102
2.ryy	2.ryy	2.ryy	2.ryy	4C#/	ad-	4A\	ad-	4g\	ad-	4ee\	-ma-	2.ryy	2.ryy	2.ryy	2.ryy	2.ryy
.	.	.	.	4C#/	-vo-	4A\	-vo-	4g\	-vo-	4ee\	-rum	.	.	.	.	.
.	.	.	.	8C#/	-ca-	8A\	-ca-	8g\	-ca-	8ee\	val-	.	.	.	.	.
.	.	.	.	8C#/	-ta	8A\	-ta	8g\	-ta	8ee\	-le	.	.	.	.	.
!	!	!	!	!LO:PB:g=original	!	!LO:LB:g=original	!	!	!	!	!	!	!	!	!	!
=103	=103	=103	=103	=103	=103	=103	=103	=103	=103	=103	=103	=103	=103	=103	=103	=103
2.ryy	2.ryy	2.ryy	2.ryy	4.D/	no-	4.A\	no-	4.f#\	no-	4.dd\	ad	2.ryy	2.ryy	2.ryy	2.ryy	2.ryy
.	.	.	.	8D/	.	8A\	.	8f#\	.	8dd\	te	.	.	.	.	.
.	.	.	.	4D/	-stra	4A\	-stra	4f#\	-stra	4dd\	cla-	.	.	.	.	.
=104	=104	=104	=104	=104	=104	=104	=104	=104	=104	=104	=104	=104	=104	=104	=104	=104
!	!	!	!	!	!	!LO:TX:t=P:problem:brak taktów nr 104-111	!	!	!	!	!	!	!	!	!	!
2.ryy	2.ryy	2.ryy	2.ryy	2.D/	il-	2.ryy	.	2.f#\	il-	2.dd\	-ma-	2.ryy	2.ryy	2.ryy	2.ryy	2.ryy
=105	=105	=105	=105	=105	=105	=105	=105	=105	=105	=105	=105	=105	=105	=105	=105	=105
2.ryy	2.ryy	2.ryy	2.ryy	2.G\	-los	2.ryy	.	2.g\	-los	2.dd\	-mus	2.ryy	2.ryy	2.ryy	2.ryy	2.ryy
!	!	!	!	!	!	!	!	!LO:LB:g=original	!	!	!	!	!	!	!	!
=106	=106	=106	=106	=106	=106	=106	=106	=106	=106	=106	=106	=106	=106	=106	=106	=106
2.ryy	2.ryy	2.ryy	2.ryy	4.F#\	tu-	2.ryy	.	4.a\	tu-	4.dd\	ad	2.ryy	2.ryy	2.ryy	2.ryy	2.ryy
.	.	.	.	8F#\	.	.	.	8a\	.	8dd\	.	.	.	.	.	.
.	.	.	.	4F#\	-os	.	.	4a\	-os	4dd\	te	.	.	.	.	.
=107	=107	=107	=107	=107	=107	=107	=107	=107	=107	=107	=107	=107	=107	=107	=107	=107
2.ryy	2.ryy	2.ryy	2.ryy	2G\	mi-	2.ryy	.	2g\	mi-	2dd\	cla-	2.ryy	2.ryy	2.ryy	2.ryy	2.ryy
.	.	.	.	4G\	.	.	.	4g\	.	4dd\	-ma-	.	.	.	.	.
=108	=108	=108	=108	=108	=108	=108	=108	=108	=108	=108	=108	=108	=108	=108	=108	=108
2.ryy	2.ryy	2.ryy	2.ryy	4G\	-se-	2.ryy	.	4g\	-se-	4dd\	-mus	2.ryy	2.ryy	2.ryy	2.ryy	2.ryy
.	.	.	.	4G\	-ri-	.	.	4g\	-ri-	4dd\	ad	.	.	.	.	.
.	.	.	.	4G\	-cor-	.	.	4g\	-cor-	4dd\	te	.	.	.	.	.
!	!	!	!	!	!	!	!	!	!	!LO:LB:g=original	!	!	!	!	!	!
=109	=109	=109	=109	=109	=109	=109	=109	=109	=109	=109	=109	=109	=109	=109	=109	=109
2.ryy	2.ryy	2.ryy	2.ryy	4.E\	-des	2.ryy	.	8g\	-des	8ee\	su-	2.ryy	2.ryy	2.ryy	2.ryy	2.ryy
.	.	.	.	.	.	.	.	8g\	o-	8ee\	-spi-	.	.	.	.	.
.	.	.	.	.	.	.	.	2g\	-cu-	2ee\	-ra-	.	.	.	.	.
.	.	.	.	8E\	o-	.	.	.	.	.	.	.	.	.	.	.
.	.	.	.	4E\	-cu-	.	.	.	.	.	.	.	.	.	.	.
=110	=110	=110	=110	=110	=110	=110	=110	=110	=110	=110	=110	=110	=110	=110	=110	=110
2.ryy	2.ryy	2.ryy	2.ryy	4D\	-los	2.ryy	.	4g\	-los	4ffn\	-mus	2.ryy	2.ryy	2.ryy	2.ryy	2.ryy
.	.	.	.	4r	.	.	.	4r	.	4r	.	.	.	.	.	.
.	.	.	.	4D\	ad	.	.	4g\	ad	4ff\	ge-	.	.	.	.	.
!	!	!	!	!LO:LB:g=original	!	!	!	!	!	!	!	!	!	!	!	!
=111	=111	=111	=111	=111	=111	=111	=111	=111	=111	=111	=111	=111	=111	=111	=111	=111
2.ryy	2.ryy	2.ryy	2.ryy	4.Cn/	.	2.ryy	.	4.g\	.	4.ee\	.	2.ryy	2.ryy	2.ryy	2.ryy	2.ryy
.	.	.	.	8C/	.	.	.	8g\	.	8ee\	.	.	.	.	.	.
.	.	.	.	4C/	te	.	.	4g\	te	4ee\	.	.	.	.	.	.
=112	=112	=112	=112	=112	=112	=112	=112	=112	=112	=112	=112	=112	=112	=112	=112	=112
*	*	*	*	*	*ij	*	*	*	*ij	*	*	*	*	*	*	*
2.ryy	2.ryy	2.ryy	2.ryy	2cn\	ad	2G/	il-	2e\	ad	2ccn\	-men-	2.ryy	2.ryy	2.ryy	2.ryy	2.ryy
.	.	.	.	4c\	te	4G/	.	4e\	te	4cc\	-tes	.	.	.	.	.
*	*	*	*	*	*Xij	*	*	*	*Xij	*	*	*	*	*	*	*
!	!	!	!	!	!	!	!	!LO:LB:g=original	!	!	!	!	!	!	!	!
=113	=113	=113	=113	=113	=113	=113	=113	=113	=113	=113	=113	=113	=113	=113	=113	=113
!	!	!	!	!	!	!	!	!	!	!LO:SIC:v:s=4.ccn\	!	!	!	!	!	!
2.ryy	2.ryy	2.ryy	2.ryy	4.A\	Cla-	4.A\	.	4.fn\	Cla-	4.cc#\	ge-	2.ryy	2.ryy	2.ryy	2.ryy	2.ryy
!	!	!	!	!	!	!	!	!	!	!LO:SIC:v:s=8ccn\	!	!	!	!	!	!
.	.	.	.	8A\	.	8A\	.	8f\	.	8cc#\	-men-	.	.	.	.	.
!	!	!	!	!	!	!	!	!	!	!LO:SIC:v:s=8ccn\	!	!	!	!	!	!
.	.	.	.	8A\	-ma-	4A\	-los	8f\	-ma-	8cc#\	-tes	.	.	.	.	.
!	!	!	!	!	!	!	!	!	!	!LO:SIC:v:s=8ccn\	!	!	!	!	!	!
.	.	.	.	8A\	-mus	.	.	8f\	-mus	8cc#\	et	.	.	.	.	.
=114	=114	=114	=114	=114	=114	=114	=114	=114	=114	=114	=114	=114	=114	=114	=114	=114
!	!	!	!	!	!	!	!	!	!	!LO:SIC:v:s=8ccn\	!	!	!	!	!	!
2.ryy	2.ryy	2.ryy	2.ryy	4.E\	ad	8B-X\	tu-	8g\	ad	8cc#\	flen-	2.ryy	2.ryy	2.ryy	2.ryy	2.ryy
!	!	!	!	!	!	!	!	!	!	!LO:SIC:v:s=8ccn\	!	!	!	!	!	!
.	.	.	.	.	.	8B-\	.	8g\	te	8cc#\	-tes	.	.	.	.	.
!	!	!	!	!	!	!	!	!	!	!LO:SIC:v:s=4ccn\	!	!	!	!	!	!
.	.	.	.	.	.	4B-\	.	4g\	su-	4cc#\	in	.	.	.	.	.
.	.	.	.	8E\	te	.	.	.	.	.	.	.	.	.	.	.
!	!	!	!	!	!	!	!	!	!	!LO:SIC:v:s=4ccn\	!	!	!	!	!	!
!	!	!	!	!	!	!	!	!	!	!LO:SIC:v:l:s=-cri-	!	!	!	!	!	!
.	.	.	.	8E\	su-	4B-\	-os	4g\	-spi-	4cc#\	chac	.	.	.	.	.
.	.	.	.	8E\	-spi-	.	.	.	.	.	.	.	.	.	.	.
!	!	!	!	!	!	!	!	!	!	!LO:LB:g=original	!	!	!	!	!	!
=115	=115	=115	=115	=115	=115	=115	=115	=115	=115	=115	=115	=115	=115	=115	=115	=115
!	!	!	!	!	!	!	!	!	!	!LO:SIC:v:s=4.ccn\	!	!	!	!	!	!
2.ryy	2.ryy	2.ryy	2.ryy	4.Fn\	-ra-	4.A\	mi	4.fn\	-ra-	4.cc#\	la-	2.ryy	2.ryy	2.ryy	2.ryy	2.ryy
!	!	!	!	!	!	!	!	!	!	!LO:SIC:v:s=8ccn\	!	!	!	!	!	!
.	.	.	.	8F\	.	8A\	.	8f\	.	8cc#\	.	.	.	.	.	.
!	!	!	!	!	!	!	!	!	!	!LO:SIC:v:l:s=-cri-	!	!	!	!	!	!
!	!	!	!	!	!	!	!	!	!	!LO:SIC:v:s=4ccn\	!	!	!	!	!	!
.	.	.	.	4F\	-mus	4A\	.	4f\	-mus	4cc#\	-hri-	.	.	.	.	.
!	!	!	!	!	!	!LO:PB:g=original	!	!	!	!	!	!	!	!	!	!
=116	=116	=116	=116	=116	=116	=116	=116	=116	=116	=116	=116	=116	=116	=116	=116	=116
!	!	!	!	!LO:SIC:v:s=4Fn\	!	!	!	!LO:SIC:v:s=4fn\	!	!	!	!	!	!	!	!
2.ryy	2.ryy	2.ryy	2.ryy	4F#\	ge-	4cn\	se-	4f#\	ge-	4a\	-Ma-	2.ryy	2.ryy	2.ryy	2.ryy	2.ryy
!	!	!	!	!LO:SIC:v:s=4Fn\	!	!	!	!LO:SIC:v:s=4fn\	!	!	!	!	!	!	!	!
.	.	.	.	4F#\	.	4c\	-ri	4f#\	.	4a\	.	.	.	.	.	.
!	!	!	!	!LO:SIC:v:s=4Fn\	!	!	!	!LO:SIC:v:s=4fn\	!	!	!	!	!	!	!	!
.	.	.	.	4F#\	.	4c\	cor-	4f#\	.	4a\	-rum	.	.	.	.	.
!	!	!	!	!LO:LB:g=original	!	!	!	!	!	!	!	!	!	!	!	!
=117	=117	=117	=117	=117	=117	=117	=117	=117	=117	=117	=117	=117	=117	=117	=117	=117
!	!	!	!	!	!	!LO:TX:t=P:problem:dwie kreski nad 2 [podział na sylaby]	!	!LO:SIC:v:s=2fn\	!	!	!	!	!	!	!	!
2.ryy	2.ryy	2.ryy	2.ryy	2D\	-men-	2d\	-des o-	2f#\	-men-	2b-X\	val-	2.ryy	2.ryy	2.ryy	2.ryy	2.ryy
!	!	!	!	!	!	!	!	!LO:SIC:v:s=4fn\	!	!	!	!	!	!	!	!
.	.	.	.	4D\	-tes	4d\	-cu-	4f#\	-tes	4b-\	-le	.	.	.	.	.
=118	=118	=118	=118	=118	=118	=118	=118	=118	=118	=118	=118	=118	=118	=118	=118	=118
*	*	*	*	*	*ij	*	*	*	*ij	*	*	*	*	*	*	*
!	!	!	!	!	!	!	!	!LO:SIC:v:s=4.fn\	!	!	!	!	!	!	!	!
2.ryy	2.ryy	2.ryy	2.ryy	4.AA/	ge-	4.e-X\	-los	4.f#\	ge-	4.ccn\	Sal-	2.ryy	2.ryy	2.ryy	2.ryy	2.ryy
!	!	!	!	!	!	!	!	!LO:SIC:v:s=8fn\	!	!	!	!	!	!	!	!
.	.	.	.	8AA/	-men-	8e-\	.	8f#\	-men-	8cc\	-ve	.	.	.	.	.
!	!	!	!	!	!	!	!	!LO:SIC:v:s=4fn\	!	!	!	!	!	!	!	!
.	.	.	.	4AA/	-tes	4e-\	ad	4f#\	-tes	4cc\	Re-	.	.	.	.	.
*	*	*	*	*	*Xij	*	*	*	*Xij	*	*	*	*	*	*	*
=119	=119	=119	=119	=119	=119	=119	=119	=119	=119	=119	=119	=119	=119	=119	=119	=119
!	!	!	!	!LO:SIC:v:s=4.BB-/	!	!	!	!LO:SIC:v:s=4.fn\	!	!LO:SIC:v:s=4.b-\	!	!	!	!	!	!
2.ryy	2.ryy	2.ryy	2.ryy	4.BB/	et	4.d\	.	4.f#\	et	4.b-X\	-gi-	2.ryy	2.ryy	2.ryy	2.ryy	2.ryy
!	!	!	!	!LO:SIC:v:s=8BB-/	!	!	!	!LO:SIC:v:s=8fn\	!	!LO:SIC:v:s=8b-\	!	!	!	!	!	!
.	.	.	.	8BB/	flen-	8d\	.	8f#\	flen-	8b-X\	-na	.	.	.	.	.
!	!	!	!	!LO:SIC:v:s=4BB-/	!	!	!	!LO:SIC:v:s=4fn\	!	!LO:SIC:v:s=4b-\	!	!	!	!	!	!
.	.	.	.	4BB/	-tes	4d\	te	4f#\	-tes	4b-X\	Ma-	.	.	.	.	.
!	!	!	!	!	!	!	!	!LO:LB:g=original	!	!	!	!	!	!	!	!
=120	=120	=120	=120	=120	=120	=120	=120	=120	=120	=120	=120	=120	=120	=120	=120	=120
*	*	*	*	*	*	*	*ij	*	*	*	*	*	*	*	*	*
2.ryy	2.ryy	2.ryy	2.ryy	2D\	in	2A\	ad	2f#X\	in	2dd\	-ter	2.ryy	2.ryy	2.ryy	2.ryy	2.ryy
.	.	.	.	4D\	hac	4A\	te	4f#\	hac	4dd\	mi-	.	.	.	.	.
*	*	*	*	*	*	*	*Xij	*	*	*	*	*	*	*	*	*
=121	=121	=121	=121	=121	=121	=121	=121	=121	=121	=121	=121	=121	=121	=121	=121	=121
*	*	*	*	*	*ij	*	*	*	*ij	*	*	*	*	*	*	*
!	!	!	!	!	!	!LO:TX:t=P:problem:dwie kreski nad 2 [podział na sylaby]	!	!	!	!	!	!	!	!	!	!
2.ryy	2.ryy	2.ryy	2.ryy	2BB-X/	in	2B-X\	Clama-	2g\	in	2dd\	-se-	2.ryy	2.ryy	2.ryy	2.ryy	2.ryy
.	.	.	.	4BB-/	hac	4B-\	-mus	4g\	hac	4dd\	-ri-	.	.	.	.	.
*	*	*	*	*	*Xij	*	*	*	*Xij	*	*	*	*	*	*	*
=122	=122	=122	=122	=122	=122	=122	=122	=122	=122	=122	=122	=122	=122	=122	=122	=122
*	*	*	*	*	*	*	*ij	*	*	*	*	*	*	*	*	*
2.ryy	2.ryy	2.ryy	2.ryy	4F#\	la-	4cn\	ad	4a\	la-	4dd\	-cor-	2.ryy	2.ryy	2.ryy	2.ryy	2.ryy
!	!	!	!	!LO:SIC:v:l:s=-cri-	!	!	!	!LO:SIC:v:l:s=-cri-	!	!	!	!	!	!	!	!
.	.	.	.	4F#\	-hri-	4c\	te	4a\	-hri-	4dd\	-di-	.	.	.	.	.
!	!	!	!	!	!	!	!	!	!	!LO:SIC:v:l:s=-ae	!	!	!	!	!	!
.	.	.	.	4F#\	-ma-	4c\	Cla-	4a\	-ma-	4dd\	-e	.	.	.	.	.
!	!	!	!	!	!	!	!	!	!	!LO:LB:g=original	!	!	!	!	!	!
=123	=123	=123	=123	=123	=123	=123	=123	=123	=123	=123	=123	=123	=123	=123	=123	=123
2.ryy	2.ryy	2.ryy	2.ryy	4.G\	-rum	4.B-X\	-ma-	4.g\	-rum	4.dd\	vi-	2.ryy	2.ryy	2.ryy	2.ryy	2.ryy
.	.	.	.	8G\	val-	8B-\	.	8g\	val-	8dd\	-ta	.	.	.	.	.
.	.	.	.	4G\	-le	4B-\	-mus	4g\	-le	4dd\	dul-	.	.	.	.	.
*	*	*	*	*	*	*	*Xij	*	*	*	*	*	*	*	*	*
!	!	!	!	!LO:LB:g=original	!	!LO:LB:g=original	!	!	!	!	!	!	!	!	!	!
=124	=124	=124	=124	=124	=124	=124	=124	=124	=124	=124	=124	=124	=124	=124	=124	=124
2.ryy	2.ryy	2.ryy	2.ryy	4E\	ad	4Bn\	ad	4g#X\	ad	4ee\	-ce-	2.ryy	2.ryy	2.ryy	2.ryy	2.ryy
.	.	.	.	8E\	te	8B\	te	8g#\	te	8ee\	-do	.	.	.	.	.
.	.	.	.	8E\	cla-	8B\	su-	8g#\	cla-	8ee\	et	.	.	.	.	.
.	.	.	.	8E\	-ma-	8B\	-spi-	8g#\	-ma-	8ee\	.	.	.	.	.	.
.	.	.	.	8E\	-mus	8B\	-ra	8g#\	-mus	8ee\	spes	.	.	.	.	.
=125	=125	=125	=125	=125	=125	=125	=125	=125	=125	=125	=125	=125	=125	=125	=125	=125
2.ryy	2.ryy	2.ryy	2.ryy	4Cn/	ad	4cn\	.	4a\	ad	4ee\	no-	2.ryy	2.ryy	2.ryy	2.ryy	2.ryy
.	.	.	.	8C/	te	8c\	.	8a\	te	8ee\	.	.	.	.	.	.
.	.	.	.	8C/	sus-	8c\	.	8a\	su-	8ee\	.	.	.	.	.	.
.	.	.	.	4C/	-pi-	4c\	.	4a\	-spi-	4ee\	-stra	.	.	.	.	.
=126	=126	=126	=126	=126	=126	=126	=126	=126	=126	=126	=126	=126	=126	=126	=126	=126
2.ryy	2.ryy	2.ryy	2.ryy	4G#X\	-ra-	4d\	.	4b\	-ra-	4ee\	no-	2.ryy	2.ryy	2.ryy	2.ryy	2.ryy
.	.	.	.	4G#\	.	4d\	.	4b\	.	4ee\	.	.	.	.	.	.
.	.	.	.	4G#\	-mus	4d\	.	4b\	-mus	4ee\	-stra	.	.	.	.	.
!	!	!	!	!	!	!	!	!LO:LB:g=original	!	!	!	!	!	!	!	!
=127	=127	=127	=127	=127	=127	=127	=127	=127	=127	=127	=127	=127	=127	=127	=127	=127
!	!	!	!	!	!	!LO:SIC:v:s=2cn\	!	!	!	!	!	!	!	!	!	!
2.ryy	2.ryy	2.ryy	2.ryy	2A\	ge-	2c#\	.	2a\	ge-	2ee\	sal-	2.ryy	2.ryy	2.ryy	2.ryy	2.ryy
!	!	!	!	!	!	!LO:SIC:v:s=4cn\	!	!	!	!	!	!	!	!	!	!
.	.	.	.	4A\	-men-	4c#\	.	4a\	-men-	4ee\	-ve	.	.	.	.	.
=128	=128	=128	=128	=128	=128	=128	=128	=128	=128	=128	=128	=128	=128	=128	=128	=128
2.ryy	2.ryy	2.ryy	2.ryy	8F#\	-tes	8A#X\	.	8f#\	-tes	8cc#X\	ge-	2.ryy	2.ryy	2.ryy	2.ryy	2.ryy
.	.	.	.	8F#\	.	8A#\	.	8f#\	.	8cc#\	.	.	.	.	.	.
.	.	.	.	4F#\	et	4A#\	.	4f#\	et	4cc#\	-men-	.	.	.	.	.
.	.	.	.	8F#\	flen-	8A#\	.	8f#\	flen-	8cc#\	-tes	.	.	.	.	.
.	.	.	.	8F#\	-tes	8A#\	.	8f#\	-tes	8cc#\	et	.	.	.	.	.
!	!	!	!	!	!	!	!	!	!	!LO:LB:g=original	!	!	!	!	!	!
=129	=129	=129	=129	=129	=129	=129	=129	=129	=129	=129	=129	=129	=129	=129	=129	=129
2.ryy	2.ryy	2.ryy	2.ryy	2D\	et	2B\	.	2f#\	et	2dd\	flen-	2.ryy	2.ryy	2.ryy	2.ryy	2.ryy
.	.	.	.	4D\	.	4B\	.	4f#\	.	4dd\	-tes	.	.	.	.	.
!	!	!	!	!	!	!LO:LB:g=original	!	!	!	!	!	!	!	!	!	!
=130	=130	=130	=130	=130	=130	=130	=130	=130	=130	=130	=130	=130	=130	=130	=130	=130
2.ryy	2.ryy	2.ryy	2.ryy	2AA#X/	flen-	2.c#X\	.	2.f#\	flen-	2.ee\	in	2.ryy	2.ryy	2.ryy	2.ryy	2.ryy
.	.	.	.	4AA#/	.	.	.	.	.	.	.	.	.	.	.	.
!	!	!	!	!LO:LB:g=original	!	!	!	!	!	!	!	!	!	!	!	!
=131	=131	=131	=131	=131	=131	=131	=131	=131	=131	=131	=131	=131	=131	=131	=131	=131
2.ryy	2.ryy	2.ryy	2.ryy	4BB/	-tes	4B\	.	4f#\	-tes	4dd\	hac	2.ryy	2.ryy	2.ryy	2.ryy	2.ryy
.	.	.	.	4r	.	4r	.	4r	.	4r	.	.	.	.	.	.
.	.	.	.	4BB/	in	4B\	.	4f#\	in	4dd\	la-	.	.	.	.	.
=132	=132	=132	=132	=132	=132	=132	=132	=132	=132	=132	=132	=132	=132	=132	=132	=132
!	!	!	!	!	!	!	!	!	!	!LO:SIC:v:l:s=-cri-	!	!	!	!	!	!
2.ryy	2.ryy	2.ryy	2.ryy	4.E\	hac	4.B\	.	4.gn\	hac	4.ee\	-hri-	2.ryy	2.ryy	2.ryy	2.ryy	2.ryy
.	.	.	.	8BB/	la-	8B\	.	8f#\	la-	8dd\	.	.	.	.	.	.
!	!	!	!	!LO:SIC:v:l:s=-cri-	!	!	!	!LO:SIC:v:l:s=-cri-	!	!	!	!	!	!	!	!
.	.	.	.	4BB/	-hri-	4B\	.	4f#\	-hri-	4dd\	.	.	.	.	.	.
=133	=133	=133	=133	=133	=133	=133	=133	=133	=133	=133	=133	=133	=133	=133	=133	=133
2.ryy	2.ryy	2.ryy	2.ryy	4.E\	-ma-	4.B\	.	4.g\	-ma-	4.ee\	-ma-	2.ryy	2.ryy	2.ryy	2.ryy	2.ryy
.	.	.	.	8BB/	.	8B\	.	8f#\	.	8dd\	.	.	.	.	.	.
.	.	.	.	4BB/	-rum	4B\	.	4f#\	-rum	4dd\	-rum	.	.	.	.	.
=134	=134	=134	=134	=134	=134	=134	=134	=134	=134	=134	=134	=134	=134	=134	=134	=134
*	*	*	*	*	*	*	*	*	*	*Xtuplet	*	*	*	*	*	*
!	!	!	!	!	!	!	!	!LO:TUP:a:problem:klamra lukowa	!	!	!	!	!	!	!	!
2.ryy	2.ryy	2.ryy	2.ryy	4E\	val-	8A#X\L	.	12g\L	val-	12ee\L	val-	2.ryy	2.ryy	2.ryy	2.ryy	2.ryy
.	.	.	.	.	.	.	.	12f#\	.	12dd\	.	.	.	.	.	.
.	.	.	.	.	.	8c#\J	.	.	.	.	.	.	.	.	.	.
.	.	.	.	.	.	.	.	12e\J	.	12cc#\J	.	.	.	.	.	.
.	.	.	.	2F#\	.	4d\	.	2f#\	.	4b\	.	.	.	.	.	.
.	.	.	.	.	.	4c#\	.	.	.	4a#X\	.	.	.	.	.	.
!	!	!	!	!	!	!	!	!LO:LB:g=original	!	!	!	!	!	!	!	!
=135	=135	=135	=135	=135	=135	=135	=135	=135	=135	=135	=135	=135	=135	=135	=135	=135
2.ryy	2.ryy	2.ryy	2.ryy	2BB/	-le	2d\	.	2f#\	-le.	2b\	-le	2.ryy	2.ryy	2.ryy	2.ryy	2.ryy
.	.	.	.	4r	.	4r	.	4r	.	4r	.	.	.	.	.	.
=136	=136	=136	=136	=136	=136	=136	=136	=136	=136	=136	=136	=136	=136	=136	=136	=136
!	!	!	!	!LO:TX:a:t=8	!	!LO:TX:a:t=8	!	!LO:TX:a:t=8	!	!	!	!	!	!	!	!
2.ryy	2.ryy	2.ryy	2.ryy	0.r	.	0.r	.	0.r	.	0.r	.	2.ryy	2.ryy	2.ryy	2.ryy	2.ryy
=137	=137	=137	=137	=137	=137	=137	=137	=137	=137	=137	=137	=137	=137	=137	=137	=137
2.ryy	2.ryy	2.ryy	2.ryy	.	.	.	.	.	.	.	.	2.ryy	2.ryy	2.ryy	2.ryy	2.ryy
=138	=138	=138	=138	=138	=138	=138	=138	=138	=138	=138	=138	=138	=138	=138	=138	=138
2.ryy	2.ryy	2.ryy	2.ryy	.	.	.	.	.	.	.	.	2.ryy	2.ryy	2.ryy	2.ryy	2.ryy
=139	=139	=139	=139	=139	=139	=139	=139	=139	=139	=139	=139	=139	=139	=139	=139	=139
2.ryy	2.ryy	2.ryy	2.ryy	.	.	.	.	.	.	.	.	2.ryy	2.ryy	2.ryy	2.ryy	2.ryy
=140	=140	=140	=140	=140	=140	=140	=140	=140	=140	=140	=140	=140	=140	=140	=140	=140
2.ryy	2.ryy	2.ryy	2.ryy	0.r	.	0.r	.	0.r	.	0.r	.	2.ryy	2.ryy	2.ryy	2.ryy	2.ryy
=141	=141	=141	=141	=141	=141	=141	=141	=141	=141	=141	=141	=141	=141	=141	=141	=141
2.ryy	2.ryy	2.ryy	2.ryy	.	.	.	.	.	.	.	.	2.ryy	2.ryy	2.ryy	2.ryy	2.ryy
=142	=142	=142	=142	=142	=142	=142	=142	=142	=142	=142	=142	=142	=142	=142	=142	=142
2.ryy	2.ryy	2.ryy	2.ryy	.	.	.	.	.	.	.	.	2.ryy	2.ryy	2.ryy	2.ryy	2.ryy
=143	=143	=143	=143	=143	=143	=143	=143	=143	=143	=143	=143	=143	=143	=143	=143	=143
2.ryy	2.ryy	2.ryy	2.ryy	.	.	.	.	.	.	.	.	2.ryy	2.ryy	2.ryy	2.ryy	2.ryy
=144	=144	=144	=144	=144	=144	=144	=144	=144	=144	=144	=144	=144	=144	=144	=144	=144
2.ryy	2.ryy	2.ryy	2.ryy	2.D\	Sal-	2.A\	Sal-	2.f#\	Sal-	2.dd\	Sal-	2.ryy	2.ryy	2.ryy	2.ryy	2.ryy
!	!	!	!	!	!	!	!	!	!	!LO:LB:g=original	!	!	!	!	!	!
=145	=145	=145	=145	=145	=145	=145	=145	=145	=145	=145	=145	=145	=145	=145	=145	=145
2.ryy	2.ryy	2.ryy	2.ryy	2.G\	-ve	2.d\	-ve	2.g\	-ve	2.b\	-ve	2.ryy	2.ryy	2.ryy	2.ryy	2.ryy
=146	=146	=146	=146	=146	=146	=146	=146	=146	=146	=146	=146	=146	=146	=146	=146	=146
2.ryy	2.ryy	2.ryy	2.ryy	2E\	Re-	2A\	Re-	2e\	Re-	2gg\	Re-	2.ryy	2.ryy	2.ryy	2.ryy	2.ryy
.	.	.	.	4G\	-gi-	4A\	-gi-	8g\L	-gi-	8ee\L	-gi-	.	.	.	.	.
.	.	.	.	.	.	.	.	8f#\J	.	8dd\J	.	.	.	.	.	.
!	!	!	!	!	!	!LO:LB:g=original	!	!	!	!	!	!	!	!	!	!
=147	=147	=147	=147	=147	=147	=147	=147	=147	=147	=147	=147	=147	=147	=147	=147	=147
.	.	.	.	.	.	.	.	.	.	8qqdd/	.	.	.	.	.	.
2.ryy	2.ryy	2.ryy	2.ryy	2A\	-na	2A\	-na.	2e\	-na	2cc#\	-na	2.ryy	2.ryy	2.ryy	2.ryy	2.ryy
.	.	.	.	4r	.	4r	.	4r	.	4r	.	.	.	.	.	.
=148	=148	=148	=148	=148	=148	=148	=148	=148	=148	=148	=148	=148	=148	=148	=148	=148
2.ryy	2.ryy	2.ryy	2.ryy	1.r	.	1.r	.	1.r	.	1.r	.	2.ryy	2.ryy	2.ryy	2.ryy	2.ryy
=149	=149	=149	=149	=149	=149	=149	=149	=149	=149	=149	=149	=149	=149	=149	=149	=149
2.ryy	2.ryy	2.ryy	2.ryy	.	.	.	.	.	.	.	.	2.ryy	2.ryy	2.ryy	2.ryy	2.ryy
!	!	!	!	!LO:LB:g=original	!	!	!	!	!	!	!	!	!	!	!	!
=150	=150	=150	=150	=150	=150	=150	=150	=150	=150	=150	=150	=150	=150	=150	=150	=150
2.ryy	2.ryy	2.ryy	2.ryy	4r	.	4r	.	4r	.	4r	.	2.ryy	2.ryy	2.ryy	2.ryy	2.ryy
.	.	.	.	4AA/	Ma-	4G/	ma-	4e\	ma-	4cc#\	Sal-	.	.	.	.	.
.	.	.	.	4D\	-ter	4A/	-ter	4f#\	-ter	4dd\	-ve	.	.	.	.	.
=151	=151	=151	=151	=151	=151	=151	=151	=151	=151	=151	=151	=151	=151	=151	=151	=151
*	*	*	*	*	*ij	*	*ij	*	*ij	*	*	*	*	*	*	*
2.ryy	2.ryy	2.ryy	2.ryy	4G\	Ma-	4B\	ma-	4g\	ma-	4ee\	Re-	2.ryy	2.ryy	2.ryy	2.ryy	2.ryy
.	.	.	.	4A\	.	4A\	.	4f#\	.	4dd\	-gi-	.	.	.	.	.
.	.	.	.	4AA/	-ter	4A\	-ter	4e\	-ter	4cc#\	-na	.	.	.	.	.
*	*	*	*	*	*Xij	*	*Xij	*	*Xij	*	*	*	*	*	*	*
=152	=152	=152	=152	=152	=152	=152	=152	=152	=152	=152	=152	=152	=152	=152	=152	=152
2.ryy	2.ryy	2.ryy	2.ryy	[8D\	mi-	8A\	mi-	[8f#\	mi-	8dd\	ma-	2.ryy	2.ryy	2.ryy	2.ryy	2.ryy
.	.	.	.	8D\]	.	8A\	.	8f#\]	.	8dd\	.	.	.	.	.	.
!	!	!	!	!	!	!	!	!	!	!LO:SIC:v:l:s=-ter	!	!	!	!	!	!
.	.	.	.	4D\	-se-	4A\	-se-	4f#\	-se-	4dd\	-ler	.	.	.	.	.
.	.	.	.	(8F#\	.	8A\	-ri-	[8f#\	-ri-	16ee\LL	mi-	.	.	.	.	.
.	.	.	.	.	.	.	.	.	.	16dd\JJ	.	.	.	.	.	.
.	.	.	.	8D\)	-ri-	8A\	.	8f#\]	.	16cc#\LL	.	.	.	.	.	.
.	.	.	.	.	.	.	.	.	.	16b\JJ	.	.	.	.	.	.
=153	=153	=153	=153	=153	=153	=153	=153	=153	=153	=153	=153	=153	=153	=153	=153	=153
2.ryy	2.ryy	2.ryy	2.ryy	4A\	-cor-	4A\	-cor-	4e\	-cor-	8a\L	-se-	2.ryy	2.ryy	2.ryy	2.ryy	2.ryy
.	.	.	.	.	.	.	.	.	.	8gg\J	.	.	.	.	.	.
.	.	.	.	4AA/	-di-	4A\	-di-	4e\	-di-	4gg\	-ri-	.	.	.	.	.
!	!	!	!	!LO:SIC:v:l:s=-ae	!	!LO:SIC:v:l:s=-ae	!	!LO:SIC:v:l:s=-ae	!	!	!	!	!	!	!	!
.	.	.	.	4C#/	-e	[4A\	-e	4e\	-e	16aa\LL	-cor-	.	.	.	.	.
.	.	.	.	.	.	.	.	.	.	16gg\	.	.	.	.	.	.
.	.	.	.	.	.	.	.	.	.	16ff#\	.	.	.	.	.	.
.	.	.	.	.	.	.	.	.	.	16ee\JJ	.	.	.	.	.	.
!	!	!	!	!	!	!	!	!LO:LB:g=original	!	!LO:LB:g=original	!	!	!	!	!	!
=154	=154	=154	=154	=154	=154	=154	=154	=154	=154	=154	=154	=154	=154	=154	=154	=154
2.ryy	2.ryy	2.ryy	2.ryy	4D/	vi-	4A\]	vi-	8d\L	vi-	8ff#\L	.	2.ryy	2.ryy	2.ryy	2.ryy	2.ryy
.	.	.	.	.	.	.	.	8f#\J	.	8dd\J	.	.	.	.	.	.
.	.	.	.	4D/	-ta	4A\	-ta	4f#\	-ta	4dd\	.	.	.	.	.	.
.	.	.	.	4D/	dul-	4A\	dul-	4f#\	dul-	16ee\LL	.	.	.	.	.	.
.	.	.	.	.	.	.	.	.	.	16dd\	.	.	.	.	.	.
.	.	.	.	.	.	.	.	.	.	16cc#\	.	.	.	.	.	.
.	.	.	.	.	.	.	.	.	.	16b\JJ	.	.	.	.	.	.
=155	=155	=155	=155	=155	=155	=155	=155	=155	=155	=155	=155	=155	=155	=155	=155	=155
2.ryy	2.ryy	2.ryy	2.ryy	4C#/	-ce-	8A\	-ce-	8e\	-ce-	8a\	.	2.ryy	2.ryy	2.ryy	2.ryy	2.ryy
.	.	.	.	.	.	8A\	-do	8e\	-do	8gg\	.	.	.	.	.	.
.	.	.	.	8C#/	-do	4A\	et	4e\	et	4gg\	.	.	.	.	.	.
.	.	.	.	8C#/	et	.	.	.	.	.	.	.	.	.	.	.
.	.	.	.	4C#/	spes	4A\	spes	4e\	spes	16aa\LL	.	.	.	.	.	.
.	.	.	.	.	.	.	.	.	.	16gg\	.	.	.	.	.	.
.	.	.	.	.	.	.	.	.	.	16ff#\	.	.	.	.	.	.
.	.	.	.	.	.	.	.	.	.	16ee\JJ	.	.	.	.	.	.
!	!	!	!	!	!	!LO:LB:g=original	!	!	!	!	!	!	!	!	!	!
=156	=156	=156	=156	=156	=156	=156	=156	=156	=156	=156	=156	=156	=156	=156	=156	=156
2.ryy	2.ryy	2.ryy	2.ryy	4D/	no-	4A\	no-	4d\	no-	4ff#\	.	2.ryy	2.ryy	2.ryy	2.ryy	2.ryy
.	.	.	.	8r	.	2d\	-stra	2f#\	-stra	2bb\	.	.	.	.	.	.
.	.	.	.	8d\L	.	.	.	.	.	.	.	.	.	.	.	.
.	.	.	.	8c#\	.	.	.	.	.	.	.	.	.	.	.	.
.	.	.	.	8B\J	.	.	.	.	.	.	.	.	.	.	.	.
!	!	!	!	!LO:LB:g=original	!	!	!	!	!	!	!	!	!	!	!	!
=157	=157	=157	=157	=157	=157	=157	=157	=157	=157	=157	=157	=157	=157	=157	=157	=157
2.ryy	2.ryy	2.ryy	2.ryy	4c#\	-stra	2.c#\	Sal-	2.e\	Sal-	4bb\	.	2.ryy	2.ryy	2.ryy	2.ryy	2.ryy
!	!	!	!	!	!	!	!	!	!	!LO:N:vis=2.	!	!	!	!	!	!
.	.	.	.	8r	.	.	.	.	.	2aa\	.	.	.	.	.	.
.	.	.	.	8c#\L	Sal-	.	.	.	.	.	.	.	.	.	.	.
.	.	.	.	8B\	.	.	.	.	.	.	.	.	.	.	.	.
.	.	.	.	8A\J	.	.	.	.	.	.	.	.	.	.	.	.
=158	=158	=158	=158	=158	=158	=158	=158	=158	=158	=158	=158	=158	=158	=158	=158	=158
2.ryy	2.ryy	2.ryy	2.ryy	4B\	.	2.B\	.	2.d\	.	2.gg\	.	2.ryy	2.ryy	2.ryy	2.ryy	2.ryy
.	.	.	.	8r	.	.	.	.	.	.	.	.	.	.	.	.
.	.	.	.	8B\L	.	.	.	.	.	.	.	.	.	.	.	.
.	.	.	.	8A\	.	.	.	.	.	.	.	.	.	.	.	.
.	.	.	.	8G\J	.	.	.	.	.	.	.	.	.	.	.	.
=159	=159	=159	=159	=159	=159	=159	=159	=159	=159	=159	=159	=159	=159	=159	=159	=159
2.ryy	2.ryy	2.ryy	2.ryy	4A\	.	2.A\	.	2.c#\	.	2.ff#\	.	2.ryy	2.ryy	2.ryy	2.ryy	2.ryy
.	.	.	.	8r	.	.	.	.	.	.	.	.	.	.	.	.
.	.	.	.	8A\L	.	.	.	.	.	.	.	.	.	.	.	.
.	.	.	.	8G\	.	.	.	.	.	.	.	.	.	.	.	.
.	.	.	.	8F#\J	.	.	.	.	.	.	.	.	.	.	.	.
=160	=160	=160	=160	=160	=160	=160	=160	=160	=160	=160	=160	=160	=160	=160	=160	=160
!	!	!	!	!	!	!	!	!	!	!LO:N:vis=2	!	!	!	!	!	!
2.ryy	2.ryy	2.ryy	2.ryy	4G\	.	2.G/	.	2.b\	.	2.ee\	-di-	2.ryy	2.ryy	2.ryy	2.ryy	2.ryy
.	.	.	.	8r	.	.	.	.	.	.	.	.	.	.	.	.
.	.	.	.	8G\L	.	.	.	.	.	.	.	.	.	.	.	.
.	.	.	.	8F#\	.	.	.	.	.	.	.	.	.	.	.	.
.	.	.	.	8E\J	.	.	.	.	.	.	.	.	.	.	.	.
=161	=161	=161	=161	=161	=161	=161	=161	=161	=161	=161	=161	=161	=161	=161	=161	=161
!	!	!	!	!	!	!	!	!	!	!LO:SIC:v:l:s=-ae	!	!	!	!	!	!
2.ryy	2.ryy	2.ryy	2.ryy	4F#\	-ve	4F#/	-ve	4a\	-ve	4dd\	-e	2.ryy	2.ryy	2.ryy	2.ryy	2.ryy
.	.	.	.	4r	.	4r	.	4r	.	4r	.	.	.	.	.	.
.	.	.	.	4r	.	4r	.	4r	.	4r	.	.	.	.	.	.
=162	=162	=162	=162	=162	=162	=162	=162	=162	=162	=162	=162	=162	=162	=162	=162	=162
2.ryy	2.ryy	2.ryy	2.ryy	4AA/	ge-	4c#\	ge-	4a\	ge-	4ee\	Ma-	2.ryy	2.ryy	2.ryy	2.ryy	2.ryy
.	.	.	.	8AA/	.	[8c#\	-men-	8b\	.	8ee\	.	.	.	.	.	.
.	.	.	.	8AA/	-men-	8c#\]	.	8a\	-men-	8ee\	-ter	.	.	.	.	.
.	.	.	.	4D\	-tes	4d\	-tes	4b\	-tes	4ff#\	mi-	.	.	.	.	.
!	!	!	!	!	!	!	!	!	!	!LO:LB:g=original	!	!	!	!	!	!
=163	=163	=163	=163	=163	=163	=163	=163	=163	=163	=163	=163	=163	=163	=163	=163	=163
2.ryy	2.ryy	2.ryy	2.ryy	4G\	et	4B\	et	4g\	et	4ee\	-se-	2.ryy	2.ryy	2.ryy	2.ryy	2.ryy
.	.	.	.	4A\	flen-	4A\	flen-	4f#\	flen-	4dd\	.	.	.	.	.	.
.	.	.	.	4AA/	-tes	4A\	-tes	4e\	-tes	4cc#\	-ri-	.	.	.	.	.
!	!	!	!	!LO:LB:g=original	!	!	!	!LO:LB:g=original	!	!	!	!	!	!	!	!
=164	=164	=164	=164	=164	=164	=164	=164	=164	=164	=164	=164	=164	=164	=164	=164	=164
2.ryy	2.ryy	2.ryy	2.ryy	8D\	in	8A\	in	8f#\	in	8dd\	-cor-	2.ryy	2.ryy	2.ryy	2.ryy	2.ryy
.	.	.	.	8D\	hac	8A\	hac	8f#\	hac	8dd\	-di-	.	.	.	.	.
!	!	!	!	!	!	!	!	!	!	!LO:SIC:v:l:s=-ae	!	!	!	!	!	!
.	.	.	.	4D\	la-	4A\	la-	4f#\	la-	4dd\	-e	.	.	.	.	.
.	.	.	.	8F#\	.	8A\	.	8f#\	.	16ee\LL	vi-	.	.	.	.	.
.	.	.	.	.	.	.	.	.	.	16dd\JJ	.	.	.	.	.	.
.	.	.	.	8D\	.	8A\	.	8f#\	.	16cc#\LL	.	.	.	.	.	.
.	.	.	.	.	.	.	.	.	.	16b\JJ	.	.	.	.	.	.
!	!	!	!	!	!	!LO:LB:g=original	!	!	!	!	!	!	!	!	!	!
=165	=165	=165	=165	=165	=165	=165	=165	=165	=165	=165	=165	=165	=165	=165	=165	=165
!	!	!	!	!LO:SIC:v:l:s=-cri-	!	!LO:SIC:v:l:s=-cri-	!	!LO:SIC:v:l:s=-cri-	!	!	!	!	!	!	!	!
2.ryy	2.ryy	2.ryy	2.ryy	4A\	-hri-	4A\	-hri-	4e\	-hri-	8a\L	-ta	2.ryy	2.ryy	2.ryy	2.ryy	2.ryy
.	.	.	.	.	.	.	.	.	.	8gg\J	.	.	.	.	.	.
.	.	.	.	4AA/	-ma-	4A\	-ma-	4e\	-ma-	4gg\	.	.	.	.	.	.
.	.	.	.	4C#/	-rum	4A\	-rum	4e\	-rum	16aa\LL	.	.	.	.	.	.
.	.	.	.	.	.	.	.	.	.	16gg\	.	.	.	.	.	.
.	.	.	.	.	.	.	.	.	.	16ff#\	.	.	.	.	.	.
.	.	.	.	.	.	.	.	.	.	16ee\JJ	.	.	.	.	.	.
=166	=166	=166	=166	=166	=166	=166	=166	=166	=166	=166	=166	=166	=166	=166	=166	=166
2.ryy	2.ryy	2.ryy	2.ryy	4D/	val-	4A\	val-	8d\L	val-	8ff#\L	dul-	2.ryy	2.ryy	2.ryy	2.ryy	2.ryy
.	.	.	.	.	.	.	.	8f#\J	.	8dd\J	.	.	.	.	.	.
.	.	.	.	4D/	.	4A\	.	4f#\	.	4dd\	-ce-	.	.	.	.	.
.	.	.	.	4D/	.	4A\	.	4f#\	.	16ee\LL	.	.	.	.	.	.
.	.	.	.	.	.	.	.	.	.	16dd\	.	.	.	.	.	.
.	.	.	.	.	.	.	.	.	.	16cc#\	.	.	.	.	.	.
.	.	.	.	.	.	.	.	.	.	16b\JJ	.	.	.	.	.	.
=167	=167	=167	=167	=167	=167	=167	=167	=167	=167	=167	=167	=167	=167	=167	=167	=167
2.ryy	2.ryy	2.ryy	2.ryy	2C#/	.	2A\	.	2e\	.	8a\L	.	2.ryy	2.ryy	2.ryy	2.ryy	2.ryy
.	.	.	.	.	.	.	.	.	.	8gg\J	.	.	.	.	.	.
.	.	.	.	.	.	.	.	.	.	4gg\	.	.	.	.	.	.
.	.	.	.	4AA/	.	4A\	.	4e\	.	16aa\LL	.	.	.	.	.	.
.	.	.	.	.	.	.	.	.	.	16gg\	.	.	.	.	.	.
.	.	.	.	.	.	.	.	.	.	16ff#\	.	.	.	.	.	.
.	.	.	.	.	.	.	.	.	.	16ee\JJ	.	.	.	.	.	.
!	!	!	!	!	!	!	!	!	!	!LO:LB:g=original	!	!	!	!	!	!
=168	=168	=168	=168	=168	=168	=168	=168	=168	=168	=168	=168	=168	=168	=168	=168	=168
2.ryy	2.ryy	2.ryy	2.ryy	4D/	-le	4A\	-le.	4d\	-le	4ff#\	-do	2.ryy	2.ryy	2.ryy	2.ryy	2.ryy
.	.	.	.	4r	.	4r	.	4r	.	4r	.	.	.	.	.	.
.	.	.	.	4r	.	4r	.	4r	.	4r	.	.	.	.	.	.
=169	=169	=169	=169	=169	=169	=169	=169	=169	=169	=169	=169	=169	=169	=169	=169	=169
2.ryy	2.ryy	2.ryy	2.ryy	4G\	ge-	4B\	ge-	4g\	ge-	4ee\	et	2.ryy	2.ryy	2.ryy	2.ryy	2.ryy
.	.	.	.	4A\	.	4A\	.	4f#\	.	4dd\	spes	.	.	.	.	.
.	.	.	.	4AA/	-men-	4A\	-men-	4e\	-men-	4cc#\	no-	.	.	.	.	.
=170	=170	=170	=170	=170	=170	=170	=170	=170	=170	=170	=170	=170	=170	=170	=170	=170
2.ryy	2.ryy	2.ryy	2.ryy	2D\	-tes	2A\	-tes	2f#\	-tes	2dd\	-stra	2.ryy	2.ryy	2.ryy	2.ryy	2.ryy
.	.	.	.	4r	.	4r	.	4r	.	4r	.	.	.	.	.	.
=171	=171	=171	=171	=171	=171	=171	=171	=171	=171	=171	=171	=171	=171	=171	=171	=171
2.ryy	2.ryy	2.ryy	2.ryy	2D\	et	2A\	et	2f#\	et	2dd\	Sal-	2.ryy	2.ryy	2.ryy	2.ryy	2.ryy
.	.	.	.	4F#\	.	4A\	.	4f#\	.	4dd\	-ve	.	.	.	.	.
!	!	!	!	!LO:LB:g=original	!	!	!	!LO:LB:g=original	!	!	!	!	!	!	!	!
=172	=172	=172	=172	=172	=172	=172	=172	=172	=172	=172	=172	=172	=172	=172	=172	=172
2.ryy	2.ryy	2.ryy	2.ryy	4.A\	.	4.A\	.	4.e\	.	4.cc#\	ge-	2.ryy	2.ryy	2.ryy	2.ryy	2.ryy
.	.	.	.	8A\	.	8A\	.	8e\	.	8cc#\	-men-	.	.	.	.	.
.	.	.	.	4A\	.	4A\	.	4e\	.	4cc#\	-tes	.	.	.	.	.
=173	=173	=173	=173	=173	=173	=173	=173	=173	=173	=173	=173	=173	=173	=173	=173	=173
*	*	*	*	*	*	*	*	*	*	*	*ij	*	*	*	*	*
2.ryy	2.ryy	2.ryy	2.ryy	4.C#/	.	4.B\	.	4.g\	.	4.ee\	ge-	2.ryy	2.ryy	2.ryy	2.ryy	2.ryy
.	.	.	.	8C#/	.	8B\	.	8g\	.	8ee\	-men-	.	.	.	.	.
.	.	.	.	4C#/	.	4B\	.	4g\	.	4ee\	-tes	.	.	.	.	.
*	*	*	*	*	*	*	*	*	*	*	*Xij	*	*	*	*	*
!	!	!	!	!	!	!LO:LB:g=original	!	!	!	!	!	!	!	!	!	!
=174	=174	=174	=174	=174	=174	=174	=174	=174	=174	=174	=174	=174	=174	=174	=174	=174
2.ryy	2.ryy	2.ryy	2.ryy	2D/	.	2A\	.	2f#\	.	2dd\	et	2.ryy	2.ryy	2.ryy	2.ryy	2.ryy
.	.	.	.	4D/	.	4A\	.	4f#\	.	4dd\	.	.	.	.	.	.
=175	=175	=175	=175	=175	=175	=175	=175	=175	=175	=175	=175	=175	=175	=175	=175	=175
2.ryy	2.ryy	2.ryy	2.ryy	4F#\	flen-	2.d\	flen-	2.a\	flen-	2.ff#\	flen-	2.ryy	2.ryy	2.ryy	2.ryy	2.ryy
.	.	.	.	4D\	.	.	.	.	.	.	.	.	.	.	.	.
.	.	.	.	4F#\	.	.	.	.	.	.	.	.	.	.	.	.
=176	=176	=176	=176	=176	=176	=176	=176	=176	=176	=176	=176	=176	=176	=176	=176	=176
2.ryy	2.ryy	2.ryy	2.ryy	4G\	-tes	4c#\	-tes	4b\	-tes	4gg\	-tes	2.ryy	2.ryy	2.ryy	2.ryy	2.ryy
.	.	.	.	4r	.	4r	.	4r	.	4r	.	.	.	.	.	.
.	.	.	.	4r	.	4r	.	4r	.	4r	.	.	.	.	.	.
!	!	!	!	!	!	!	!	!	!	!LO:LB:g=original	!	!	!	!	!	!
=177	=177	=177	=177	=177	=177	=177	=177	=177	=177	=177	=177	=177	=177	=177	=177	=177
2.ryy	2.ryy	2.ryy	2.ryy	8r	.	8r	.	8r	.	8r	.	2.ryy	2.ryy	2.ryy	2.ryy	2.ryy
.	.	.	.	8G\	in	8A\	in	8f#\	in	8dd\	ge-	.	.	.	.	.
.	.	.	.	4A\	.	4A\	.	4f#\	.	4dd\	-men-	.	.	.	.	.
.	.	.	.	4AA/	hac	4A\	hac	4e\	hac	4cc#\	-tes	.	.	.	.	.
=178	=178	=178	=178	=178	=178	=178	=178	=178	=178	=178	=178	=178	=178	=178	=178	=178
*	*	*	*	*	*	*	*	*	*	*	*ij	*	*	*	*	*
2.ryy	2.ryy	2.ryy	2.ryy	4AA/	la-	4A\	la-	4e\	la-	4cc#\	ge-	2.ryy	2.ryy	2.ryy	2.ryy	2.ryy
.	.	.	.	4AA/	.	4A\	.	4e\	.	4cc#\	-men-	.	.	.	.	.
!	!	!	!	!LO:SIC:v:l:s=-cri-	!	!LO:SIC:v:l:s=-cri-	!	!LO:SIC:v:l:s=-cri-	!	!	!	!	!	!	!	!
.	.	.	.	4AA/	-hri-	4A\	-hri-	4e\	-hri-	4cc#\	-tes	.	.	.	.	.
=179	=179	=179	=179	=179	=179	=179	=179	=179	=179	=179	=179	=179	=179	=179	=179	=179
2.ryy	2.ryy	2.ryy	2.ryy	4.D\	-ma-	4.A\	-ma-	4.f#\	-ma-	4.dd\	ge-	2.ryy	2.ryy	2.ryy	2.ryy	2.ryy
.	.	.	.	8D\	.	8A\	.	8f#\	.	8dd\	-men-	.	.	.	.	.
.	.	.	.	4D\	-rum	4A\	-rum	4f#\	-rum	4dd\	-tes	.	.	.	.	.
!	!	!	!	!LO:LB:g=original	!	!	!	!LO:LB:g=original	!	!	!	!	!	!	!	!
=180	=180	=180	=180	=180	=180	=180	=180	=180	=180	=180	=180	=180	=180	=180	=180	=180
2.ryy	2.ryy	2.ryy	2.ryy	8AA/	val-	8A\	val-	8e\	val-	8a\	ge-	2.ryy	2.ryy	2.ryy	2.ryy	2.ryy
.	.	.	.	8AA/	.	8A\	.	8e\	.	8a\	.	.	.	.	.	.
.	.	.	.	4C#/	.	4c#\	.	4a\	.	4ee\	-men-	.	.	.	.	.
.	.	.	.	8AA/	.	8e\	.	8a\	.	8gg\	-tes	.	.	.	.	.
*	*	*	*	*	*	*	*	*	*	*	*Xij	*	*	*	*	*
.	.	.	.	8AA/	.	8e\	.	8a\	.	8gg\	.	.	.	.	.	.
!	!	!	!	!	!	!LO:LB:g=original	!	!	!	!	!	!	!	!	!	!
=181	=181	=181	=181	=181	=181	=181	=181	=181	=181	=181	=181	=181	=181	=181	=181	=181
2.ryy	2.ryy	2.ryy	2.ryy	4.D\	.	4.d\	.	4.a\	.	4.ff#\	et	2.ryy	2.ryy	2.ryy	2.ryy	2.ryy
.	.	.	.	8D\	.	8d\	.	8a\	.	8ff#\	flen-	.	.	.	.	.
!	!	!	!	!	!	!	!	!	!	!LO:SIC:v:l:s=-tes	!	!	!	!	!	!
.	.	.	.	4D\	.	4d\	.	4a\	.	4ff#\	-te	.	.	.	.	.
=182	=182	=182	=182	=182	=182	=182	=182	=182	=182	=182	=182	=182	=182	=182	=182	=182
2.ryy	2.ryy	2.ryy	2.ryy	4A\	.	4A\	.	4e\	.	4cc#\	ad	2.ryy	2.ryy	2.ryy	2.ryy	2.ryy
.	.	.	.	8A\	.	8A\	.	8e\	.	8cc#\	te	.	.	.	.	.
.	.	.	.	8A\	.	8A\	.	8e\	.	8cc#\	cla-	.	.	.	.	.
.	.	.	.	8A\	.	8A\	.	8e\	.	8cc#\	-ma-	.	.	.	.	.
.	.	.	.	8A\	.	8A\	.	8e\	.	8cc#\	-mus	.	.	.	.	.
!	!	!	!	!	!	!	!	!	!	!LO:LB:g=original	!	!	!	!	!	!
=183	=183	=183	=183	=183	=183	=183	=183	=183	=183	=183	=183	=183	=183	=183	=183	=183
2.ryy	2.ryy	2.ryy	2.ryy	4.D\	.	4.A\	.	4.f#\	.	4.dd\	ad	2.ryy	2.ryy	2.ryy	2.ryy	2.ryy
.	.	.	.	8D\	.	8A\	.	8f#\	.	8dd\	.	.	.	.	.	.
.	.	.	.	8F#\L	.	4A\	.	4f#\	.	4dd\	te	.	.	.	.	.
.	.	.	.	8D\J	.	.	.	.	.	.	.	.	.	.	.	.
=184	=184	=184	=184	=184	=184	=184	=184	=184	=184	=184	=184	=184	=184	=184	=184	=184
!	!	!	!	!LO:N:vis=4	!	!	!	!	!	!	!	!	!	!	!	!
2.ryy	2.ryy	2.ryy	2.ryy	8G\	.	2A\	.	8e\	.	4a\	su-	2.ryy	2.ryy	2.ryy	2.ryy	2.ryy
!	!	!	!	!LO:N:vis=4	!	!	!	!	!	!	!	!	!	!	!	!
.	.	.	.	8E\	.	.	.	2a\	.	.	.	.	.	.	.	.
.	.	.	.	4C#/	.	.	.	.	.	4cc#\	.	.	.	.	.	.
.	.	.	.	4AA/	-le	8c#\L	.	.	.	8ee\L	-spi-	.	.	.	.	.
.	.	.	.	.	.	8e\J	-le	8a\	-le	8gg\J	.	.	.	.	.	.
=185	=185	=185	=185	=185	=185	=185	=185	=185	=185	=185	=185	=185	=185	=185	=185	=185
2.ryy	2.ryy	2.ryy	2.ryy	4D\	val-	4d\	val-	4a\	val-	4ff#\	-ra-	2.ryy	2.ryy	2.ryy	2.ryy	2.ryy
.	.	.	.	4D\	-le	4d\	-le	4a\	-le	4ff#\	-mus	.	.	.	.	.
.	.	.	.	4r	.	4r	.	4r	.	4r	.	.	.	.	.	.
!	!	!	!	!LO:LB:g=original	!	!	!	!	!	!	!	!	!	!	!	!
=186	=186	=186	=186	=186	=186	=186	=186	=186	=186	=186	=186	=186	=186	=186	=186	=186
2.ryy	2.ryy	2.ryy	2.ryy	4G\	Sal-	4d\	Sal-	4g\	Sal-	4b\	ge-	2.ryy	2.ryy	2.ryy	2.ryy	2.ryy
.	.	.	.	4G\	-ve	4d\	-ve	4g\	-ve	4b\	-men-	.	.	.	.	.
.	.	.	.	4G\	re-	4d\	re-	4g\	re-	4b\	-tes	.	.	.	.	.
!	!	!	!	!	!	!	!	!LO:LB:g=original	!	!	!	!	!	!	!	!
=187	=187	=187	=187	=187	=187	=187	=187	=187	=187	=187	=187	=187	=187	=187	=187	=187
*	*	*	*	*	*	*	*	*	*	*	*ij	*	*	*	*	*
2.ryy	2.ryy	2.ryy	2.ryy	4F#\	-gi-	2d\	-gi-	4f#\	-gi-	4a\	ge-	2.ryy	2.ryy	2.ryy	2.ryy	2.ryy
.	.	.	.	4D\	.	.	.	4d\	.	4f#\	-men-	.	.	.	.	.
.	.	.	.	4F#\	-na	4d\	-na	4f#\	-na	4a\	-tes	.	.	.	.	.
*	*	*	*	*	*	*	*	*	*	*	*Xij	*	*	*	*	*
!	!	!	!	!	!	!LO:LB:g=original	!	!	!	!	!	!	!	!	!	!
=188	=188	=188	=188	=188	=188	=188	=188	=188	=188	=188	=188	=188	=188	=188	=188	=188
*	*	*	*	*	*	*	*	*	*ij	*	*	*	*	*	*	*
!	!	!	!	!LO:TX:t=P:problem:kreski nad półnutą	!	!	!	!	!	!	!	!	!	!	!	!
2.ryy	2.ryy	2.ryy	2.ryy	2G\	Sal-	2d\	Re-	4g\	Sal-	4b\	et	2.ryy	2.ryy	2.ryy	2.ryy	2.ryy
.	.	.	.	.	.	.	.	4b\	-ve	4dd\	.	.	.	.	.	.
.	.	.	.	4G\	-ve	4d\	.	4g\	re-	4b\	.	.	.	.	.	.
=189	=189	=189	=189	=189	=189	=189	=189	=189	=189	=189	=189	=189	=189	=189	=189	=189
*	*	*	*	*	*ij	*	*	*	*	*	*	*	*	*	*	*
2.ryy	2.ryy	2.ryy	2.ryy	4D\	Sal-	4d\	-gi-	4f#\	-gi-	4a\	flen-	2.ryy	2.ryy	2.ryy	2.ryy	2.ryy
.	.	.	.	4D\	-ve	4d\	-na	4f#\	-na	4a\	-tes	.	.	.	.	.
*	*	*	*	*	*Xij	*	*	*	*Xij	*	*	*	*	*	*	*
.	.	.	.	4r	.	4r	.	4r	.	4r	.	.	.	.	.	.
=190	=190	=190	=190	=190	=190	=190	=190	=190	=190	=190	=190	=190	=190	=190	=190	=190
2.ryy	2.ryy	2.ryy	2.ryy	4AA/	Ma-	4e\	Ma-	4g\	Ma-	4cc#\	et	2.ryy	2.ryy	2.ryy	2.ryy	2.ryy
.	.	.	.	4r	.	4r	.	4r	.	4r	.	.	.	.	.	.
.	.	.	.	4r	.	4r	.	4r	.	4r	.	.	.	.	.	.
=191	=191	=191	=191	=191	=191	=191	=191	=191	=191	=191	=191	=191	=191	=191	=191	=191
2.ryy	2.ryy	2.ryy	2.ryy	4.D\	-ter	4.f#\	-ter	4.a\	-ter	4.dd\	flen-	2.ryy	2.ryy	2.ryy	2.ryy	2.ryy
.	.	.	.	8D\	mi-	8f#\	mi-	8a\	mi-	8dd\	.	.	.	.	.	.
.	.	.	.	4D\	-se-	4f#\	-se-	4a\	-se-	4dd\	.	.	.	.	.	.
!	!	!	!	!	!	!	!	!	!	!LO:LB:g=original	!	!	!	!	!	!
=192	=192	=192	=192	=192	=192	=192	=192	=192	=192	=192	=192	=192	=192	=192	=192	=192
2.ryy	2.ryy	2.ryy	2.ryy	4AA/	-ri	4e\	-ri	4a\	-ri	4cc#\	-tes	2.ryy	2.ryy	2.ryy	2.ryy	2.ryy
.	.	.	.	4r	.	4r	.	4r	.	4r	.	.	.	.	.	.
.	.	.	.	4r	.	4r	.	4r	.	4r	.	.	.	.	.	.
=193	=193	=193	=193	=193	=193	=193	=193	=193	=193	=193	=193	=193	=193	=193	=193	=193
2.ryy	2.ryy	2.ryy	2.ryy	4D/	mi-	4A\	Mi-	4f#\	Mi-	4dd\	in	2.ryy	2.ryy	2.ryy	2.ryy	2.ryy
.	.	.	.	4C#/	-se-	4A\	-se-	4g\	-se-	4ee\	.	.	.	.	.	.
.	.	.	.	4D/	-ri-	4A\	-ri-	4a\	-ri-	4ff#\	hac	.	.	.	.	.
!	!	!	!	!LO:LB:g=original	!	!	!	!	!	!	!	!	!	!	!	!
=194	=194	=194	=194	=194	=194	=194	=194	=194	=194	=194	=194	=194	=194	=194	=194	=194
2.ryy	2.ryy	2.ryy	2.ryy	8G\	-Cor-	8B\	-Cor-	8b\	-Cor-	8gg\	la-	2.ryy	2.ryy	2.ryy	2.ryy	2.ryy
!	!	!	!	!	!	!	!	!	!	!LO:SIC:v:l:s=-cri-	!	!	!	!	!	!
.	.	.	.	8E\	.	8B\	.	8g\	.	8ee\	-hri-	.	.	.	.	.
.	.	.	.	4A\	-di-	2A\	-di-	4f#\	-di-	4dd\	-ma-	.	.	.	.	.
.	.	.	.	4AA/	.	.	.	4e\	.	4cc#\	.	.	.	.	.	.
!	!	!	!	!	!	!	!	!LO:LB:g=original	!	!	!	!	!	!	!	!
=195	=195	=195	=195	=195	=195	=195	=195	=195	=195	=195	=195	=195	=195	=195	=195	=195
!	!	!	!	!LO:SIC:v:l:s=-ae	!	!LO:SIC:v:l:s=-ae	!	!LO:SIC:v:l:s=-ae	!	!	!	!	!	!	!	!
2.ryy	2.ryy	2.ryy	2.ryy	4D\	-e	4A\	-e.	4f#\	-e	4dd\	-rum	2.ryy	2.ryy	2.ryy	2.ryy	2.ryy
.	.	.	.	4r	.	4r	.	4r	.	4r	.	.	.	.	.	.
.	.	.	.	4r	.	4r	.	4r	.	4r	.	.	.	.	.	.
!	!	!	!	!	!	!LO:LB:g=original	!	!	!	!	!	!	!	!	!	!
=196	=196	=196	=196	=196	=196	=196	=196	=196	=196	=196	=196	=196	=196	=196	=196	=196
2.ryy	2.ryy	2.ryy	2.ryy	4F#\	et	4d\	et	4f#\	et	4a\	val-	2.ryy	2.ryy	2.ryy	2.ryy	2.ryy
.	.	.	.	4D\	spes	4d\	spes	4f#\	spes	4a\	.	.	.	.	.	.
.	.	.	.	4G\	no-	4d\	no-	4g\	no-	4b\	.	.	.	.	.	.
=197	=197	=197	=197	=197	=197	=197	=197	=197	=197	=197	=197	=197	=197	=197	=197	=197
2.ryy	2.ryy	2.ryy	2.ryy	4D\	-stra	4d\	-stra	4f#\	-stra	4a\	-le	2.ryy	2.ryy	2.ryy	2.ryy	2.ryy
.	.	.	.	4r	.	4r	.	4r	.	4r	.	.	.	.	.	.
.	.	.	.	4r	.	4r	.	4r	.	4r	.	.	.	.	.	.
=198	=198	=198	=198	=198	=198	=198	=198	=198	=198	=198	=198	=198	=198	=198	=198	=198
2.ryy	2.ryy	2.ryy	2.ryy	4r	.	4r	.	4r	.	4r	.	2.ryy	2.ryy	2.ryy	2.ryy	2.ryy
.	.	.	.	4A\	et	4c#\	et	4g\	et	4ee\	ge-	.	.	.	.	.
.	.	.	.	4AA/	.	4c#\	.	4g\	.	4ee\	-men-	.	.	.	.	.
=199	=199	=199	=199	=199	=199	=199	=199	=199	=199	=199	=199	=199	=199	=199	=199	=199
2.ryy	2.ryy	2.ryy	2.ryy	4D\	spes	4d\	spes	4f#\	spes	4dd\	-tes	2.ryy	2.ryy	2.ryy	2.ryy	2.ryy
.	.	.	.	4r	.	4r	.	4r	.	4r	.	.	.	.	.	.
.	.	.	.	4r	.	4r	.	4r	.	4r	.	.	.	.	.	.
=200	=200	=200	=200	=200	=200	=200	=200	=200	=200	=200	=200	=200	=200	=200	=200	=200
2.ryy	2.ryy	2.ryy	2.ryy	4F#\	no-	4d\	no-	4f#\	no-	4a\	et	2.ryy	2.ryy	2.ryy	2.ryy	2.ryy
.	.	.	.	4F#\	-stra	4d\	-stra	4f#\	-stra	4a\	.	.	.	.	.	.
.	.	.	.	4F#\	Sal-	4d\	Sal-	4f#\	Sal-	4a\	flen-	.	.	.	.	.
=201	=201	=201	=201	=201	=201	=201	=201	=201	=201	=201	=201	=201	=201	=201	=201	=201
2.ryy	2.ryy	2.ryy	2.ryy	4G\	-ve	4d\	-ve	4g\	-ve	4b\	-tes	2.ryy	2.ryy	2.ryy	2.ryy	2.ryy
.	.	.	.	4r	.	4r	.	4r	.	4r	.	.	.	.	.	.
.	.	.	.	4r	.	4r	.	4r	.	4r	.	.	.	.	.	.
=202	=202	=202	=202	=202	=202	=202	=202	=202	=202	=202	=202	=202	=202	=202	=202	=202
2.ryy	2.ryy	2.ryy	2.ryy	2.A\	Sal-	2.A\	Sal-	2.f#\	Sal-	2.dd\	Sal-	2.ryy	2.ryy	2.ryy	2.ryy	2.ryy
=203	=203	=203	=203	=203	=203	=203	=203	=203	=203	=203	=203	=203	=203	=203	=203	=203
2.ryy	2.ryy	2.ryy	2.ryy	4.A\	-ve	4.A\	-ve	4.f#\	-ve	4.dd\	-ve	2.ryy	2.ryy	2.ryy	2.ryy	2.ryy
.	.	.	.	8A\	.	8A\	.	8f#\	.	8dd\	.	.	.	.	.	.
.	.	.	.	4A\	Re-	4A\	Re-	4f#\	Re-	4dd\	Re-	.	.	.	.	.
!	!	!	!	!	!	!LO:LB:g=original	!	!LO:LB:g=original	!	!LO:LB:g=original	!	!	!	!	!	!
=204	=204	=204	=204	=204	=204	=204	=204	=204	=204	=204	=204	=204	=204	=204	=204	=204
2.ryy	2.ryy	2.ryy	2.ryy	2A\	-gi-	2c#\	-gi-	2g\	-gi-	2ee\	-gi-	2.ryy	2.ryy	2.ryy	2.ryy	2.ryy
!	!	!	!	!	!	!LO:SIC:v:l:s=-na	!	!	!	!	!	!	!	!	!	!
.	.	.	.	4A\	-na	4c#\	-ne	4g\	-na	4ee\	-na	.	.	.	.	.
!	!	!	!	!LO:LB:g=original	!	!	!	!	!	!	!	!	!	!	!	!
=205	=205	=205	=205	=205	=205	=205	=205	=205	=205	=205	=205	=205	=205	=205	=205	=205
2.ryy	2.ryy	2.ryy	2.ryy	2.A\	Sal-	2c#\	Sal-	2.g\	Sal-	2.ee\	Sal-	2.ryy	2.ryy	2.ryy	2.ryy	2.ryy
.	.	.	.	.	.	4A\	.	.	.	.	.	.	.	.	.	.
=206	=206	=206	=206	=206	=206	=206	=206	=206	=206	=206	=206	=206	=206	=206	=206	=206
2.ryy	2.ryy	2.ryy	2.ryy	2D\	-ve	2A\	-ve.	2f#\	-ve	2dd\	-ve	2.ryy	2.ryy	2.ryy	2.ryy	2.ryy
.	.	.	.	4r	.	4r	.	4r	.	4r	.	.	.	.	.	.
=207	=207	=207	=207	=207	=207	=207	=207	=207	=207	=207	=207	=207	=207	=207	=207	=207
!	!	!	!	!LO:TX:b:t=Verte. Cito.	!	!	!	!	!	!LO:TX:b:i:rj:t=Verte Cito et Jesum	!	!	!	!	!	!
2.ryy	2.ryy	2.ryy	2.ryy	2.r	.	2.r	.	2.r	.	2.ryy	.	2.ryy	2.ryy	2.ryy	2.ryy	2.ryy
==	==	==	==	==	==	==	==	==	==	==	==	==	==	==	==	==
*-	*-	*-	*-	*-	*-	*-	*-	*-	*-	*-	*-	*-	*-	*-	*-	*-
!!!system-decoration: [(g1)][(g2)]<s5>[(g3)][(g4)]s13
!!!ENC: Andrzej Kubiczek
!!!END: 2020-11-10
!!!ENC: Marta Lawrence
!!!END: 2022-04-19
